;FLAVOR:Marlin
;TIME:682
;Filament used: 0.240079m, 0m, 0m, 0m, 0m, 0m
;Layer height: 0.1
;MINX:25.076
;MINY:18
;MINZ:0.3
;MAXX:58.184
;MAXY:31.991
;MAXZ:8.8
;Generated with Cura_SteamEngine master
T0
M140 S60
M105
M190 S60
M104 S195
M105
M109 S195
M82 ;absolute extrusion mode
;(**** start of start-gcode for Edison Bio NK 1.57.70.0 BI-P2-01-999999-9990 ****)
G21; set units to mm,
G90; set positioning to absolute
;M104 S0 T0 (set extruder temperature)
G92 Z0
G1 Z20 F120
G28 X Y F1000 (home XY axes maximum)
G28 Z F120 (home Z axis minimum)
M1010 S1
G95 P2
;G1 Z20 F1500
;G1 X119 Y20 F800
;M109 S0 T0 ;wait for extruder to reach temperature
;M106 P4 S255 ;uv led1
;M106 P3 S255 ;uv led2
M1015 P0 F60.0 E-0.5
G92 E0 (Set E to 0 again)
T0 ;Switch to the first extruder
;(**** end of start-gcode ****)
G92 E0
G92 E0
G1 F900 E-6.5
;LAYER_COUNT:86
;LAYER:0
M107
G0 F7200 X26.087 Y19.615 Z0.3
;TYPE:SKIRT
G1 F900 E0
G1 F1800 X26.493 Y19.183 E0.02958
;UV_PER_LAYERS: 1
G1 X26.954 Y18.811 E0.05913
;UV_PER_LAYERS: 1
G1 X27.461 Y18.503 E0.08873
;UV_PER_LAYERS: 1
G1 X28.005 Y18.266 E0.11833
;UV_PER_LAYERS: 1
G1 X28.576 Y18.105 E0.14793
;UV_PER_LAYERS: 1
G1 X29.36 Y18.012 E0.18732
;UV_PER_LAYERS: 1
G1 X53.07 Y18 E1.37021
;UV_PER_LAYERS: 1
G1 X53.821 Y18.01 E1.40768
;UV_PER_LAYERS: 1
G1 X54.412 Y18.059 E1.43727
;UV_PER_LAYERS: 1
G1 X54.991 Y18.187 E1.46685
;UV_PER_LAYERS: 1
G1 X55.548 Y18.391 E1.49645
;UV_PER_LAYERS: 1
G1 X56.072 Y18.668 E1.52602
;UV_PER_LAYERS: 1
G1 X56.554 Y19.013 E1.55559
;UV_PER_LAYERS: 1
G1 X56.985 Y19.42 E1.58517
;UV_PER_LAYERS: 1
G1 X57.358 Y19.882 E1.61479
;UV_PER_LAYERS: 1
G1 X57.665 Y20.389 E1.64436
;UV_PER_LAYERS: 1
G1 X57.902 Y20.932 E1.67392
;UV_PER_LAYERS: 1
G1 X58.063 Y21.503 E1.70352
;UV_PER_LAYERS: 1
G1 X58.156 Y22.306 E1.74385
;UV_PER_LAYERS: 1
G1 X58.179 Y23.277 E1.7923
;UV_PER_LAYERS: 1
G1 X58.184 Y24.85 E1.87078
;UV_PER_LAYERS: 1
G1 X58.176 Y25.636 E1.91
;UV_PER_LAYERS: 1
G1 X58.129 Y26.228 E1.93962
;UV_PER_LAYERS: 1
G1 X58.004 Y26.807 E1.96918
;UV_PER_LAYERS: 1
G1 X57.801 Y27.365 E1.9988
;UV_PER_LAYERS: 1
G1 X57.526 Y27.89 E2.02837
;UV_PER_LAYERS: 1
G1 X57.182 Y28.373 E2.05795
;UV_PER_LAYERS: 1
G1 X56.777 Y28.806 E2.08753
;UV_PER_LAYERS: 1
G1 X56.317 Y29.18 E2.11711
;UV_PER_LAYERS: 1
G1 X55.811 Y29.489 E2.14669
;UV_PER_LAYERS: 1
G1 X55.268 Y29.727 E2.17627
;UV_PER_LAYERS: 1
G1 X54.698 Y29.89 E2.20584
;UV_PER_LAYERS: 1
G1 X53.96 Y29.984 E2.24296
;UV_PER_LAYERS: 1
G1 X50.24 Y30 E2.42855
;UV_PER_LAYERS: 1
G1 X47.458 Y30.039 E2.56736
;UV_PER_LAYERS: 1
G1 X44.774 Y30.153 E2.70139
;UV_PER_LAYERS: 1
G1 X42.093 Y30.343 E2.83548
;UV_PER_LAYERS: 1
G1 X39.357 Y30.615 E2.97265
;UV_PER_LAYERS: 1
G1 X36.727 Y30.951 E3.10493
;UV_PER_LAYERS: 1
G1 X34.02 Y31.376 E3.24164
;UV_PER_LAYERS: 1
G1 X31.955 Y31.767 E3.34649
;UV_PER_LAYERS: 1
G1 X31.17 Y31.907 E3.38627
;UV_PER_LAYERS: 1
G1 X30.599 Y31.97 E3.41493
;UV_PER_LAYERS: 1
G1 X30.068 Y31.991 E3.44144
;UV_PER_LAYERS: 1
G1 X29.418 Y31.989 E3.47387
;UV_PER_LAYERS: 1
G1 X28.827 Y31.94 E3.50346
;UV_PER_LAYERS: 1
G1 X28.248 Y31.812 E3.53304
;UV_PER_LAYERS: 1
G1 X27.691 Y31.607 E3.56265
;UV_PER_LAYERS: 1
G1 X27.167 Y31.33 E3.59222
;UV_PER_LAYERS: 1
G1 X26.686 Y30.984 E3.62179
;UV_PER_LAYERS: 1
G1 X26.255 Y30.576 E3.65139
;UV_PER_LAYERS: 1
G1 X25.883 Y30.115 E3.68095
;UV_PER_LAYERS: 1
G1 X25.576 Y29.607 E3.71056
;UV_PER_LAYERS: 1
G1 X25.34 Y29.063 E3.74015
;UV_PER_LAYERS: 1
G1 X25.18 Y28.492 E3.76973
;UV_PER_LAYERS: 1
G1 X25.088 Y27.709 E3.80906
;UV_PER_LAYERS: 1
G1 X25.076 Y23.055 E4.04125
;UV_PER_LAYERS: 1
G1 X25.085 Y22.349 E4.07648
;UV_PER_LAYERS: 1
G1 X25.134 Y21.758 E4.10606
;UV_PER_LAYERS: 1
G1 X25.261 Y21.178 E4.13569
;UV_PER_LAYERS: 1
G1 X25.465 Y20.622 E4.16523
;UV_PER_LAYERS: 1
G1 X25.742 Y20.097 E4.19485
;UV_PER_LAYERS: 1
G1 X26.087 Y19.615 E4.22442
;UV_PER_LAYERS: 1
G0 F7200 X26.481 Y19.769
G1 F1800 X26.883 Y19.372 E4.25261
;UV_PER_LAYERS: 1
G1 X27.338 Y19.035 E4.28086
;UV_PER_LAYERS: 1
G1 X27.835 Y18.766 E4.30905
;UV_PER_LAYERS: 1
G1 X28.365 Y18.57 E4.33724
;UV_PER_LAYERS: 1
G1 X28.918 Y18.45 E4.36547
;UV_PER_LAYERS: 1
G1 X29.688 Y18.403 E4.40396
;UV_PER_LAYERS: 1
G1 X53.07 Y18.4 E5.57049
;UV_PER_LAYERS: 1
G1 X53.815 Y18.41 E5.60766
;UV_PER_LAYERS: 1
G1 X54.378 Y18.459 E5.63586
;UV_PER_LAYERS: 1
G1 X54.929 Y18.586 E5.66407
;UV_PER_LAYERS: 1
G1 X55.457 Y18.789 E5.69229
;UV_PER_LAYERS: 1
G1 X55.95 Y19.065 E5.72048
;UV_PER_LAYERS: 1
G1 X56.4 Y19.408 E5.74871
;UV_PER_LAYERS: 1
G1 X56.797 Y19.81 E5.7769
;UV_PER_LAYERS: 1
G1 X57.133 Y20.265 E5.80511
;UV_PER_LAYERS: 1
G1 X57.402 Y20.762 E5.83331
;UV_PER_LAYERS: 1
G1 X57.598 Y21.292 E5.8615
;UV_PER_LAYERS: 1
G1 X57.717 Y21.845 E5.88972
;UV_PER_LAYERS: 1
G1 X57.779 Y23.286 E5.96168
;UV_PER_LAYERS: 1
G1 X57.784 Y24.851 E6.03976
;UV_PER_LAYERS: 1
G1 X57.776 Y25.632 E6.07872
;UV_PER_LAYERS: 1
G1 X57.73 Y26.196 E6.10696
;UV_PER_LAYERS: 1
G1 X57.604 Y26.747 E6.13515
;UV_PER_LAYERS: 1
G1 X57.403 Y27.275 E6.16334
;UV_PER_LAYERS: 1
G1 X57.129 Y27.769 E6.19152
;UV_PER_LAYERS: 1
G1 X56.788 Y28.22 E6.21973
;UV_PER_LAYERS: 1
G1 X56.387 Y28.619 E6.24795
;UV_PER_LAYERS: 1
G1 X55.933 Y28.956 E6.27616
;UV_PER_LAYERS: 1
G1 X55.437 Y29.227 E6.30436
;UV_PER_LAYERS: 1
G1 X54.907 Y29.425 E6.33259
;UV_PER_LAYERS: 1
G1 X54.355 Y29.546 E6.36078
;UV_PER_LAYERS: 1
G1 X53.704 Y29.595 E6.39335
;UV_PER_LAYERS: 1
G1 X50.235 Y29.6 E6.56642
;UV_PER_LAYERS: 1
G1 X47.435 Y29.64 E6.70613
;UV_PER_LAYERS: 1
G1 X44.765 Y29.753 E6.83945
;UV_PER_LAYERS: 1
G1 X42.058 Y29.945 E6.97485
;UV_PER_LAYERS: 1
G1 X39.337 Y30.215 E7.11126
;UV_PER_LAYERS: 1
G1 X36.651 Y30.558 E7.24636
;UV_PER_LAYERS: 1
G1 X33.944 Y30.984 E7.38307
;UV_PER_LAYERS: 1
G1 X31.88 Y31.374 E7.48787
;UV_PER_LAYERS: 1
G1 X31.101 Y31.513 E7.52735
;UV_PER_LAYERS: 1
G1 X30.581 Y31.57 E7.55344
;UV_PER_LAYERS: 1
G1 X30.064 Y31.591 E7.57926
;UV_PER_LAYERS: 1
G1 X29.424 Y31.59 E7.61119
;UV_PER_LAYERS: 1
G1 X28.861 Y31.541 E7.63938
;UV_PER_LAYERS: 1
G1 X28.31 Y31.413 E7.6676
;UV_PER_LAYERS: 1
G1 X27.783 Y31.209 E7.6958
;UV_PER_LAYERS: 1
G1 X27.289 Y30.933 E7.72403
;UV_PER_LAYERS: 1
G1 X26.84 Y30.59 E7.75222
;UV_PER_LAYERS: 1
G1 X26.444 Y30.187 E7.78041
;UV_PER_LAYERS: 1
G1 X26.108 Y29.732 E7.80862
;UV_PER_LAYERS: 1
G1 X25.84 Y29.234 E7.83684
;UV_PER_LAYERS: 1
G1 X25.644 Y28.704 E7.86503
;UV_PER_LAYERS: 1
G1 X25.526 Y28.151 E7.89324
;UV_PER_LAYERS: 1
G1 X25.478 Y27.366 E7.93248
;UV_PER_LAYERS: 1
G1 X25.476 Y23.055 E8.14755
;UV_PER_LAYERS: 1
G1 X25.485 Y22.354 E8.18253
;UV_PER_LAYERS: 1
G1 X25.533 Y21.791 E8.21072
;UV_PER_LAYERS: 1
G1 X25.66 Y21.24 E8.23893
;UV_PER_LAYERS: 1
G1 X25.863 Y20.712 E8.26715
;UV_PER_LAYERS: 1
G1 X26.139 Y20.219 E8.29534
;UV_PER_LAYERS: 1
G1 X26.481 Y19.769 E8.32354
;UV_PER_LAYERS: 1
G0 F7200 X26.874 Y19.931
G1 F1800 X27.272 Y19.571 E8.35031
;UV_PER_LAYERS: 1
G1 X27.718 Y19.274 E8.37705
;UV_PER_LAYERS: 1
G1 X28.203 Y19.046 E8.40378
;UV_PER_LAYERS: 1
G1 X28.717 Y18.893 E8.43054
;UV_PER_LAYERS: 1
G1 X29.383 Y18.811 E8.46402
;UV_PER_LAYERS: 1
G1 X53.07 Y18.8 E9.64577
;UV_PER_LAYERS: 1
G1 X53.809 Y18.81 E9.68264
;UV_PER_LAYERS: 1
G1 X54.344 Y18.858 E9.70944
;UV_PER_LAYERS: 1
G1 X54.865 Y18.985 E9.73619
;UV_PER_LAYERS: 1
G1 X55.361 Y19.187 E9.76291
;UV_PER_LAYERS: 1
G1 X55.822 Y19.461 E9.78967
;UV_PER_LAYERS: 1
G1 X56.237 Y19.801 E9.81643
;UV_PER_LAYERS: 1
G1 X56.597 Y20.198 E9.84317
;UV_PER_LAYERS: 1
G1 X56.894 Y20.645 E9.86994
;UV_PER_LAYERS: 1
G1 X57.122 Y21.13 E9.89668
;UV_PER_LAYERS: 1
G1 X57.275 Y21.644 E9.92344
;UV_PER_LAYERS: 1
G1 X57.356 Y22.325 E9.95765
;UV_PER_LAYERS: 1
G1 X57.379 Y23.296 E10.00611
;UV_PER_LAYERS: 1
G1 X57.384 Y24.852 E10.08374
;UV_PER_LAYERS: 1
G1 X57.376 Y25.628 E10.12245
;UV_PER_LAYERS: 1
G1 X57.33 Y26.162 E10.14919
;UV_PER_LAYERS: 1
G1 X57.205 Y26.684 E10.17597
;UV_PER_LAYERS: 1
G1 X57.004 Y27.181 E10.20272
;UV_PER_LAYERS: 1
G1 X56.732 Y27.643 E10.22947
;UV_PER_LAYERS: 1
G1 X56.394 Y28.059 E10.25621
;UV_PER_LAYERS: 1
G1 X55.998 Y28.421 E10.28297
;UV_PER_LAYERS: 1
G1 X55.552 Y28.719 E10.30974
;UV_PER_LAYERS: 1
G1 X55.068 Y28.948 E10.33645
;UV_PER_LAYERS: 1
G1 X54.554 Y29.103 E10.36323
;UV_PER_LAYERS: 1
G1 X53.926 Y29.185 E10.39483
;UV_PER_LAYERS: 1
G1 X50.229 Y29.2 E10.57928
;UV_PER_LAYERS: 1
G1 X47.448 Y29.239 E10.71803
;UV_PER_LAYERS: 1
G1 X44.72 Y29.355 E10.85426
;UV_PER_LAYERS: 1
G1 X41.991 Y29.549 E10.99075
;UV_PER_LAYERS: 1
G1 X39.314 Y29.814 E11.12496
;UV_PER_LAYERS: 1
G1 X36.575 Y30.164 E11.26272
;UV_PER_LAYERS: 1
G1 X33.904 Y30.584 E11.39761
;UV_PER_LAYERS: 1
G1 X31.806 Y30.981 E11.50414
;UV_PER_LAYERS: 1
G1 X31.031 Y31.119 E11.54342
;UV_PER_LAYERS: 1
G1 X30.181 Y31.187 E11.58596
;UV_PER_LAYERS: 1
G1 X29.43 Y31.19 E11.62343
;UV_PER_LAYERS: 1
G1 X28.896 Y31.141 E11.65018
;UV_PER_LAYERS: 1
G1 X28.375 Y31.014 E11.67693
;UV_PER_LAYERS: 1
G1 X27.879 Y30.811 E11.70367
;UV_PER_LAYERS: 1
G1 X27.418 Y30.537 E11.73043
;UV_PER_LAYERS: 1
G1 X27.003 Y30.197 E11.75719
;UV_PER_LAYERS: 1
G1 X26.643 Y29.799 E11.78397
;UV_PER_LAYERS: 1
G1 X26.347 Y29.352 E11.81071
;UV_PER_LAYERS: 1
G1 X26.12 Y28.866 E11.83747
;UV_PER_LAYERS: 1
G1 X25.968 Y28.352 E11.86421
;UV_PER_LAYERS: 1
G1 X25.887 Y27.688 E11.89759
;UV_PER_LAYERS: 1
G1 X25.876 Y23.055 E12.12873
;UV_PER_LAYERS: 1
G1 X25.885 Y22.36 E12.16341
;UV_PER_LAYERS: 1
G1 X25.933 Y21.826 E12.19015
;UV_PER_LAYERS: 1
G1 X26.059 Y21.304 E12.21695
;UV_PER_LAYERS: 1
G1 X26.261 Y20.808 E12.24366
;UV_PER_LAYERS: 1
G1 X26.535 Y20.347 E12.27042
;UV_PER_LAYERS: 1
G1 X26.874 Y19.931 E12.29719
;UV_PER_LAYERS: 1
G0 F7200 X26.931 Y20.482
G1 F1800 X27.266 Y20.104 E12.32239
;UV_PER_LAYERS: 1
G1 X27.657 Y19.783 E12.34763
;UV_PER_LAYERS: 1
G1 X28.094 Y19.528 E12.37287
;UV_PER_LAYERS: 1
G1 X28.565 Y19.345 E12.39808
;UV_PER_LAYERS: 1
G1 X29.059 Y19.238 E12.4233
;UV_PER_LAYERS: 1
G1 X29.711 Y19.202 E12.45588
;UV_PER_LAYERS: 1
G1 X53.07 Y19.2 E13.62126
;UV_PER_LAYERS: 1
G1 X53.804 Y19.21 E13.65789
;UV_PER_LAYERS: 1
G1 X54.307 Y19.258 E13.68309
;UV_PER_LAYERS: 1
G1 X54.797 Y19.384 E13.70834
;UV_PER_LAYERS: 1
G1 X55.26 Y19.585 E13.73352
;UV_PER_LAYERS: 1
G1 X55.686 Y19.857 E13.75873
;UV_PER_LAYERS: 1
G1 X56.064 Y20.193 E13.78397
;UV_PER_LAYERS: 1
G1 X56.385 Y20.584 E13.8092
;UV_PER_LAYERS: 1
G1 X56.64 Y21.021 E13.83445
;UV_PER_LAYERS: 1
G1 X56.822 Y21.492 E13.85964
;UV_PER_LAYERS: 1
G1 X56.929 Y21.986 E13.88486
;UV_PER_LAYERS: 1
G1 X56.979 Y23.305 E13.95071
;UV_PER_LAYERS: 1
G1 X56.984 Y24.853 E14.02794
;UV_PER_LAYERS: 1
G1 X56.976 Y25.623 E14.06636
;UV_PER_LAYERS: 1
G1 X56.93 Y26.127 E14.0916
;UV_PER_LAYERS: 1
G1 X56.806 Y26.617 E14.11682
;UV_PER_LAYERS: 1
G1 X56.606 Y27.081 E14.14203
;UV_PER_LAYERS: 1
G1 X56.336 Y27.508 E14.16723
;UV_PER_LAYERS: 1
G1 X56.001 Y27.888 E14.19251
;UV_PER_LAYERS: 1
G1 X55.611 Y28.209 E14.21771
;UV_PER_LAYERS: 1
G1 X55.176 Y28.466 E14.24291
;UV_PER_LAYERS: 1
G1 X54.705 Y28.65 E14.26814
;UV_PER_LAYERS: 1
G1 X54.211 Y28.758 E14.29337
;UV_PER_LAYERS: 1
G1 X53.671 Y28.795 E14.32037
;UV_PER_LAYERS: 1
G1 X50.223 Y28.8 E14.4924
;UV_PER_LAYERS: 1
G1 X47.426 Y28.84 E14.63195
;UV_PER_LAYERS: 1
G1 X44.709 Y28.955 E14.76763
;UV_PER_LAYERS: 1
G1 X41.963 Y29.15 E14.90497
;UV_PER_LAYERS: 1
G1 X39.257 Y29.418 E15.04063
;UV_PER_LAYERS: 1
G1 X36.534 Y29.766 E15.17759
;UV_PER_LAYERS: 1
G1 X33.834 Y30.19 E15.31394
;UV_PER_LAYERS: 1
G1 X31.732 Y30.588 E15.42068
;UV_PER_LAYERS: 1
G1 X30.961 Y30.725 E15.45974
;UV_PER_LAYERS: 1
G1 X30.163 Y30.788 E15.49968
;UV_PER_LAYERS: 1
G1 X29.436 Y30.79 E15.53595
;UV_PER_LAYERS: 1
G1 X28.933 Y30.742 E15.56116
;UV_PER_LAYERS: 1
G1 X28.443 Y30.615 E15.58641
;UV_PER_LAYERS: 1
G1 X27.98 Y30.413 E15.61161
;UV_PER_LAYERS: 1
G1 X27.554 Y30.141 E15.63683
;UV_PER_LAYERS: 1
G1 X27.176 Y29.805 E15.66206
;UV_PER_LAYERS: 1
G1 X26.856 Y29.413 E15.68731
;UV_PER_LAYERS: 1
G1 X26.602 Y28.977 E15.71248
;UV_PER_LAYERS: 1
G1 X26.42 Y28.505 E15.73772
;UV_PER_LAYERS: 1
G1 X26.314 Y28.011 E15.76293
;UV_PER_LAYERS: 1
G1 X26.278 Y27.345 E15.7962
;UV_PER_LAYERS: 1
G1 X26.276 Y23.055 E16.01023
;UV_PER_LAYERS: 1
G1 X26.285 Y22.365 E16.04466
;UV_PER_LAYERS: 1
G1 X26.332 Y21.862 E16.06986
;UV_PER_LAYERS: 1
G1 X26.458 Y21.372 E16.0951
;UV_PER_LAYERS: 1
G1 X26.659 Y20.908 E16.12033
;UV_PER_LAYERS: 1
G1 X26.931 Y20.482 E16.14555
;UV_PER_LAYERS: 1
G1 F900 E9.64555
;MESH:Bed_Spacer.stl
G0 F7200 X29.037 Y23.015
G0 X30.09 Y23.014
G0 X30.561 Y24.93
G0 X30.631 Y25
;TYPE:WALL-INNER
G1 F900 E16.14555
G1 F1800 X30.631 Y26.539 E16.22233
;UV_PER_LAYERS: 1
G1 X30.584 Y26.767 E16.23394
;UV_PER_LAYERS: 1
G1 X30.53 Y26.853 E16.23901
;UV_PER_LAYERS: 1
G1 X30.464 Y26.905 E16.2432
;UV_PER_LAYERS: 1
G1 X30.416 Y26.943 E16.24626
;UV_PER_LAYERS: 1
G1 X30.287 Y26.988 E16.25307
;UV_PER_LAYERS: 1
G1 X30.077 Y26.992 E16.26355
;UV_PER_LAYERS: 1
G1 X30.077 Y26.944
;UV_PER_LAYERS: 1
G1 X30.077 Y26.882 E16.26644
;UV_PER_LAYERS: 1
G1 X30.076 Y23.2 E16.45013
;UV_PER_LAYERS: 1
G1 X30.076 Y23 E16.46011
;UV_PER_LAYERS: 1
G1 X30.276 Y23 E16.46657
;UV_PER_LAYERS: 1
G1 X53.179 Y23 E17.6092
;UV_PER_LAYERS: 1
G1 X53.184 Y24.8 E17.69901
;UV_PER_LAYERS: 1
G1 X53.184 Y25 E17.70899
;UV_PER_LAYERS: 1
G1 X52.984 Y25 E17.71545
;UV_PER_LAYERS: 1
G1 X30.631 Y25 E18.83064
;UV_PER_LAYERS: 1
G0 F7200 X31.016 Y25.385
;TYPE:WALL-OUTER
G1 F1800 X31.016 Y26.577 E18.89011
;UV_PER_LAYERS: 1
G1 X30.947 Y26.913 E18.90722
;UV_PER_LAYERS: 1
G1 X30.82 Y27.114 E18.91909
;UV_PER_LAYERS: 1
G1 X30.604 Y27.286 E18.93286
;UV_PER_LAYERS: 1
G1 X30.356 Y27.372 E18.94596
;UV_PER_LAYERS: 1
G1 X29.895 Y27.382 E18.96896
;UV_PER_LAYERS: 1
G1 X29.894 Y27.383 E18.96903
;UV_PER_LAYERS: 1
G1 X29.692 Y27.385 E18.97911
;UV_PER_LAYERS: 1
G1 X29.692 Y27.183 E18.98561
;UV_PER_LAYERS: 1
G1 X29.692 Y27.182 E18.98566
;UV_PER_LAYERS: 1
G1 X29.691 Y22.815 E19.20353
;UV_PER_LAYERS: 1
G1 X29.691 Y22.615 E19.21351
;UV_PER_LAYERS: 1
G1 X29.891 Y22.615 E19.21997
;UV_PER_LAYERS: 1
G1 X53.563 Y22.615 E20.40097
;UV_PER_LAYERS: 1
G1 X53.57 Y25.185 E20.52919
;UV_PER_LAYERS: 1
G1 X53.57 Y25.385 E20.53917
;UV_PER_LAYERS: 1
G1 X53.37 Y25.385 E20.54563
;UV_PER_LAYERS: 1
G1 X31.016 Y25.385 E21.66087
;UV_PER_LAYERS: 1
G0 F7200 X31.016 Y25.635
G0 X30.531 Y25.635
G0 X30.466 Y24.61
;TYPE:SKIN
G1 F1800 X30.466 Y23.39 E21.72174
;UV_PER_LAYERS: 1
G1 X52.789 Y23.39 E22.83544
;UV_PER_LAYERS: 1
G1 X52.793 Y24.61 E22.8963
;UV_PER_LAYERS: 1
G1 X30.466 Y24.61 E24.0102
;UV_PER_LAYERS: 1
G0 F7200 X31.218 Y24.429
G1 F1800 X30.645 Y23.857 E24.05059
;UV_PER_LAYERS: 1
G0 F7200 X30.923 Y23.569
G1 F1800 X31.783 Y24.429 E24.11127
;UV_PER_LAYERS: 1
G0 F7200 X32.349 Y24.429
G1 F1800 X31.489 Y23.569 E24.17195
;UV_PER_LAYERS: 1
G0 F7200 X32.055 Y23.569
G1 F1800 X32.915 Y24.429 E24.23263
;UV_PER_LAYERS: 1
G0 F7200 X33.48 Y24.429
M104 S190
G1 F1800 X32.62 Y23.569 E24.29331
;UV_PER_LAYERS: 1
G0 F7200 X33.186 Y23.569
G1 F1800 X34.046 Y24.429 E24.35398
;UV_PER_LAYERS: 1
G0 F7200 X34.612 Y24.429
G1 F1800 X33.752 Y23.569 E24.41466
;UV_PER_LAYERS: 1
G0 F7200 X34.318 Y23.569
G1 F1800 X35.177 Y24.429 E24.4753
;UV_PER_LAYERS: 1
G0 F7200 X35.743 Y24.429
G1 F1800 X34.883 Y23.569 E24.53598
;UV_PER_LAYERS: 1
G0 F7200 X35.449 Y23.569
G1 F1800 X36.309 Y24.429 E24.59666
;UV_PER_LAYERS: 1
G0 F7200 X36.874 Y24.429
G1 F1800 X36.015 Y23.569 E24.6573
;UV_PER_LAYERS: 1
G0 F7200 X36.58 Y23.569
G1 F1800 X37.44 Y24.429 E24.71798
;UV_PER_LAYERS: 1
G0 F7200 X38.006 Y24.429
G1 F1800 X37.146 Y23.569 E24.77866
;UV_PER_LAYERS: 1
G0 F7200 X37.712 Y23.569
G1 F1800 X38.571 Y24.429 E24.8393
;UV_PER_LAYERS: 1
G0 F7200 X39.137 Y24.429
G1 F1800 X38.277 Y23.569 E24.89998
;UV_PER_LAYERS: 1
G0 F7200 X38.843 Y23.569
G1 F1800 X39.703 Y24.429 E24.96065
;UV_PER_LAYERS: 1
G0 F7200 X40.269 Y24.429
G1 F1800 X39.409 Y23.569 E25.02133
;UV_PER_LAYERS: 1
G0 F7200 X39.974 Y23.569
G1 F1800 X40.834 Y24.429 E25.08201
;UV_PER_LAYERS: 1
G0 F7200 X41.4 Y24.429
G1 F1800 X40.54 Y23.569 E25.14269
;UV_PER_LAYERS: 1
G0 F7200 X41.106 Y23.569
G1 F1800 X41.966 Y24.429 E25.20336
;UV_PER_LAYERS: 1
G0 F7200 X42.531 Y24.429
G1 F1800 X41.671 Y23.569 E25.26404
;UV_PER_LAYERS: 1
G0 F7200 X42.237 Y23.569
G1 F1800 X43.097 Y24.429 E25.32472
;UV_PER_LAYERS: 1
G0 F7200 X43.663 Y24.429
G1 F1800 X42.803 Y23.569 E25.3854
;UV_PER_LAYERS: 1
G0 F7200 X43.368 Y23.569
G1 F1800 X44.228 Y24.429 E25.44607
;UV_PER_LAYERS: 1
