;FLAVOR:Marlin
;TIME:1531
;Filament used: 0.35183m, 0m, 0m, 0m, 0m, 0m
;Layer height: 0.1
;MINX:-12.591
;MINY:-13.347
;MINZ:0.3
;MAXX:12.83
;MAXY:12.846
;MAXZ:12.9
;Generated with Cura_SteamEngine master
T0
M140 S60
M105
M190 S60
M104 S195
M105
M109 S195
M82 ;absolute extrusion mode
;(**** start of start-gcode for Edison Bio NK 1.57.70.0 BI-P2-01-999999-9990 ****)
G21; set units to mm,
G90; set positioning to absolute
;M104 S0 T0 (set extruder temperature)
G92 Z0
G1 Z20 F120
G28 X Y F1000 (home XY axes maximum)
G28 Z F120 (home Z axis minimum)
M1010 S1
G95 P2
;G1 Z20 F1500
;G1 X119 Y20 F800
;M109 S0 T0 ;wait for extruder to reach temperature
;M106 P4 S255 ;uv led1
;M106 P3 S255 ;uv led2
M1015 P0 F60.0 E-0.5
G92 E0 (Set E to 0 again)
T0 ;Switch to the first extruder
;(**** end of start-gcode ****)
G92 E0
G92 E0
G1 F900 E-6.5
;LAYER_COUNT:127
;LAYER:0
M107
G0 F7200 X-11.792 Y-3.976 Z0.3
;TYPE:SKIRT
G1 F900 E0
G1 F1800 X-11.475 Y-4.842 E0.04601
G1 X-11.076 Y-5.823 E0.09884
G1 X-10.844 Y-6.304 E0.12549
G1 X-10.592 Y-6.754 E0.15122
G1 X-10.273 Y-7.297 E0.18264
G1 X-9.772 Y-8.049 E0.22772
G1 X-9.411 Y-8.523 E0.25744
G1 X-8.799 Y-9.216 E0.30357
G1 X-8.181 Y-9.826 E0.34689
G1 X-7.716 Y-10.214 E0.37711
G1 X-7.292 Y-10.542 E0.40385
G1 X-6.866 Y-10.851 E0.43011
G1 X-6.042 Y-11.377 E0.47888
G1 X-5.156 Y-11.835 E0.52864
G1 X-4.377 Y-12.17 E0.57094
G1 X-3.291 Y-12.553 E0.62839
G1 X-2.376 Y-12.799 E0.67566
G1 X-1.679 Y-12.935 E0.71109
G1 X-.343 Y-13.072 E0.7781
G1 X0.368 Y-13.102 E0.8136
G1 X1.394 Y-13.051 E0.86485
G1 X1.962 Y-12.969 E0.89348
G1 X2.874 Y-12.808 E0.93969
G1 X3.603 Y-12.61 E0.97737
G1 X4.299 Y-12.356 E1.01434
G1 X4.876 Y-12.117 E1.04549
G1 X5.424 Y-11.853 E1.07584
G1 X6.021 Y-11.536 E1.10956
G1 X6.799 Y-11.059 E1.15509
G1 X7.364 Y-10.666 E1.18943
G1 X7.962 Y-10.172 E1.22813
G1 X8.502 Y-9.686 E1.26437
G1 X9.141 Y-9.075 E1.30848
G1 X9.593 Y-8.604 E1.34105
G1 X10.248 Y-7.803 E1.39267
G1 X10.61 Y-7.32 E1.42278
G1 X10.986 Y-6.74 E1.45727
G1 X11.277 Y-6.226 E1.48674
G1 X11.579 Y-5.606 E1.52114
G1 X11.777 Y-5.14 E1.5464
G1 X12.078 Y-4.36 E1.58812
G1 X12.247 Y-3.856 E1.61464
G1 X12.464 Y-3.065 E1.65556
G1 X12.705 Y-1.836 E1.71804
G1 X12.798 Y-1.005 E1.75976
G1 X12.83 Y0.035 E1.81167
G1 X12.798 Y0.97 E1.85834
G1 X12.724 Y1.716 E1.89574
G1 X12.601 Y2.48 E1.93435
G1 X12.422 Y3.294 E1.97593
G1 X12.132 Y4.251 E2.02582
G1 X11.927 Y4.805 E2.05529
G1 X11.551 Y5.646 E2.10125
G1 X11.29 Y6.16 E2.13001
G1 X10.881 Y6.857 E2.17033
G1 X10.522 Y7.411 E2.20326
G1 X10.113 Y7.956 E2.23726
G1 X9.645 Y8.505 E2.27325
G1 X9.185 Y9.007 E2.30722
G1 X8.76 Y9.419 E2.33675
G1 X8.224 Y9.891 E2.37238
G1 X7.748 Y10.281 E2.40308
G1 X7.27 Y10.629 E2.43258
G1 X6.63 Y11.043 E2.47061
G1 X6.182 Y11.301 E2.4964
G1 X5.598 Y11.61 E2.52936
G1 X4.965 Y11.9 E2.5641
G1 X4.236 Y12.179 E2.60304
G1 X3.689 Y12.353 E2.63168
G1 X2.821 Y12.567 E2.67628
G1 X1.645 Y12.756 E2.73571
G1 X0.581 Y12.846 E2.78898
G1 X-.364 Y12.845 E2.83613
G1 X-1.005 Y12.805 E2.86817
G1 X-1.981 Y12.663 E2.91737
G1 X-2.566 Y12.549 E2.94711
G1 X-3.401 Y12.32 E2.9903
G1 X-4.018 Y12.103 E3.02294
G1 X-4.764 Y11.799 E3.06312
G1 X-5.409 Y11.506 E3.09847
G1 X-5.967 Y11.219 E3.12977
G1 X-6.714 Y10.77 E3.17326
G1 X-7.304 Y10.354 E3.20927
G1 X-8.072 Y9.748 E3.25808
G1 X-8.539 Y9.339 E3.28905
G1 X-9.334 Y8.508 E3.34643
G1 X-9.934 Y7.753 E3.39454
G1 X-10.406 Y7.051 E3.43674
G1 X-10.776 Y6.435 E3.47259
G1 X-11.3 Y5.368 E3.5319
G1 X-11.751 Y4.33 E3.58836
G1 X-12.144 Y3.204 E3.64786
G1 X-12.337 Y2.487 E3.68491
G1 X-12.524 Y1.375 E3.74116
G1 X-12.584 Y0.728 E3.77358
G1 X-12.591 Y0.042 E3.80781
G1 X-12.545 Y-.728 E3.84629
G1 X-12.489 Y-1.274 E3.87367
G1 X-12.388 Y-1.972 E3.90886
G1 X-12.221 Y-2.669 E3.94462
G1 X-11.792 Y-3.976 E4.01325
G0 F7200 X-11.412 Y-3.851
G1 F1800 X-11.1 Y-4.704 E4.05856
G1 X-10.706 Y-5.672 E4.1107
G1 X-10.243 Y-6.558 E4.16057
G1 X-9.928 Y-7.094 E4.19159
G1 X-9.442 Y-7.823 E4.2353
G1 X-9.097 Y-8.274 E4.26363
G1 X-8.502 Y-8.949 E4.30852
G1 X-7.925 Y-9.519 E4.34899
G1 X-7.46 Y-9.907 E4.3792
G1 X-7.058 Y-10.218 E4.40456
G1 X-6.632 Y-10.527 E4.43081
G1 X-5.858 Y-11.021 E4.47662
G1 X-4.972 Y-11.479 E4.52638
G1 X-4.227 Y-11.799 E4.56684
G1 X-3.16 Y-12.176 E4.62329
G1 X-2.28 Y-12.411 E4.66874
G1 X-1.607 Y-12.541 E4.70293
G1 X-.308 Y-12.673 E4.76807
G1 X0.363 Y-12.702 E4.80158
G1 X1.337 Y-12.655 E4.85023
G1 X1.905 Y-12.573 E4.87886
G1 X2.803 Y-12.414 E4.92436
G1 X3.466 Y-12.235 E4.95862
G1 X4.162 Y-11.981 E4.99559
G1 X4.704 Y-11.756 E5.02486
G1 X5.241 Y-11.498 E5.05459
G1 X5.829 Y-11.185 E5.08782
G1 X6.587 Y-10.719 E5.13221
G1 X7.117 Y-10.351 E5.1644
G1 X7.701 Y-9.869 E5.20218
G1 X8.234 Y-9.389 E5.23796
G1 X8.864 Y-8.786 E5.28147
G1 X9.302 Y-8.33 E5.31302
G1 X9.935 Y-7.555 E5.36294
G1 X10.288 Y-7.081 E5.39242
G1 X10.646 Y-6.53 E5.42521
G1 X10.92 Y-6.047 E5.45291
G1 X11.21 Y-5.449 E5.48607
G1 X11.408 Y-4.983 E5.51133
G1 X11.705 Y-4.217 E5.55232
G1 X11.866 Y-3.734 E5.57772
G1 X12.077 Y-2.962 E5.61765
G1 X12.311 Y-1.763 E5.67859
G1 X12.399 Y-.97 E5.7184
G1 X12.43 Y0.043 E5.76896
G1 X12.398 Y0.952 E5.81434
G1 X12.329 Y1.653 E5.84948
G1 X12.206 Y2.417 E5.88809
G1 X12.033 Y3.204 E5.92829
G1 X11.75 Y4.13 E5.9766
G1 X11.553 Y4.661 E6.00485
G1 X11.187 Y5.479 E6.04956
G1 X10.935 Y5.976 E6.07736
G1 X10.538 Y6.651 E6.11643
G1 X10.195 Y7.18 E6.14789
G1 X9.809 Y7.697 E6.18007
G1 X9.341 Y8.246 E6.21607
G1 X8.903 Y8.724 E6.24841
G1 X8.496 Y9.119 E6.27671
G1 X7.96 Y9.591 E6.31234
G1 X7.509 Y9.961 E6.34144
G1 X7.049 Y10.296 E6.36983
G1 X6.43 Y10.696 E6.4066
G1 X5.982 Y10.954 E6.43239
G1 X5.427 Y11.249 E6.46375
G1 X4.804 Y11.534 E6.49793
G1 X4.115 Y11.798 E6.53474
G1 X3.568 Y11.972 E6.56338
G1 X2.758 Y12.172 E6.605
G1 X1.582 Y12.361 E6.66443
G1 X0.554 Y12.447 E6.71589
G1 X-.357 Y12.445 E6.76134
G1 X-.959 Y12.408 E6.79143
G1 X-1.919 Y12.268 E6.83984
G1 X-2.487 Y12.157 E6.86871
G1 X-3.288 Y11.937 E6.91015
G1 X-3.868 Y11.732 E6.94084
G1 X-4.614 Y11.428 E6.98103
G1 X-5.227 Y11.15 E7.01461
G1 X-5.785 Y10.863 E7.04592
G1 X-6.502 Y10.431 E7.08768
G1 X-7.069 Y10.03 E7.12233
G1 X-7.821 Y9.437 E7.17011
G1 X-8.272 Y9.041 E7.20005
G1 X-9.04 Y8.236 E7.25556
G1 X-9.616 Y7.51 E7.30179
G1 X-10.071 Y6.832 E7.34253
G1 X-10.432 Y6.231 E7.37751
G1 X-10.938 Y5.198 E7.43489
G1 X-11.383 Y4.171 E7.49073
G1 X-11.764 Y3.077 E7.54853
G1 X-11.949 Y2.389 E7.58407
G1 X-12.129 Y1.316 E7.63835
G1 X-12.185 Y0.7 E7.66921
G1 X-12.191 Y0.048 E7.70174
G1 X-12.146 Y-.7 E7.73913
G1 X-12.093 Y-1.223 E7.76535
G1 X-11.993 Y-1.911 E7.80004
G1 X-11.841 Y-2.544 E7.83252
G1 X-11.412 Y-3.851 E7.90114
G0 F7200 X-11.031 Y-3.727
G1 F1800 X-10.725 Y-4.565 E7.94565
G1 X-10.336 Y-5.52 E7.9971
G1 X-9.894 Y-6.363 E8.04459
G1 X-9.584 Y-6.891 E8.07513
G1 X-9.111 Y-7.598 E8.11757
G1 X-8.784 Y-8.026 E8.14444
G1 X-8.204 Y-8.682 E8.18813
G1 X-7.668 Y-9.212 E8.22574
G1 X-7.203 Y-9.6 E8.25595
G1 X-6.397 Y-10.203 E8.30617
G1 X-5.674 Y-10.666 E8.349
G1 X-4.788 Y-11.124 E8.39876
G1 X-4.077 Y-11.428 E8.43734
G1 X-3.028 Y-11.798 E8.49284
G1 X-2.184 Y-12.022 E8.5364
G1 X-1.535 Y-12.148 E8.56938
G1 X-.272 Y-12.275 E8.63271
G1 X0.357 Y-12.302 E8.66412
G1 X1.847 Y-12.177 E8.73872
G1 X2.732 Y-12.02 E8.78356
G1 X3.329 Y-11.859 E8.81441
G1 X4.025 Y-11.605 E8.85137
G1 X4.532 Y-11.394 E8.87877
G1 X5.057 Y-11.143 E8.9078
G1 X5.638 Y-10.834 E8.94063
G1 X6.376 Y-10.38 E8.98386
G1 X6.869 Y-10.037 E9.01383
G1 X7.439 Y-9.566 E9.05072
G1 X7.966 Y-9.092 E9.08608
G1 X8.587 Y-8.498 E9.12895
G1 X9.011 Y-8.055 E9.15954
G1 X9.621 Y-7.306 E9.20774
G1 X9.967 Y-6.843 E9.23657
G1 X10.306 Y-6.32 E9.26767
G1 X10.562 Y-5.867 E9.29363
G1 X10.842 Y-5.293 E9.32549
G1 X11.04 Y-4.827 E9.35075
G1 X11.331 Y-4.074 E9.39102
G1 X11.537 Y-3.437 E9.42443
G1 X11.691 Y-2.859 E9.45427
G1 X11.918 Y-1.69 E9.51368
G1 X12.001 Y-.934 E9.55162
G1 X12.03 Y0.052 E9.60084
G1 X11.998 Y0.934 E9.64487
G1 X11.934 Y1.589 E9.6777
G1 X11.811 Y2.353 E9.71631
G1 X11.643 Y3.113 E9.75514
G1 X11.369 Y4.008 E9.80184
G1 X11.18 Y4.517 E9.82893
G1 X10.824 Y5.313 E9.87243
G1 X10.58 Y5.791 E9.8992
G1 X10.195 Y6.445 E9.93707
G1 X9.869 Y6.948 E9.96697
G1 X9.505 Y7.437 E9.99738
G1 X9.037 Y7.986 E10.03337
G1 X8.621 Y8.44 E10.0641
G1 X8.231 Y8.819 E10.09123
G1 X7.695 Y9.291 E10.12686
G1 X7.269 Y9.64 E10.15433
G1 X6.828 Y9.962 E10.18158
G1 X6.231 Y10.35 E10.2171
G1 X5.783 Y10.608 E10.24289
G1 X5.256 Y10.887 E10.27264
G1 X4.644 Y11.167 E10.30622
G1 X3.993 Y11.417 E10.34101
G1 X3.446 Y11.591 E10.36964
G1 X2.694 Y11.777 E10.40829
G1 X1.518 Y11.966 E10.46772
G1 X0.528 Y12.048 E10.51728
G1 X-.35 Y12.045 E10.56108
G1 X-.913 Y12.01 E10.58922
G1 X-1.856 Y11.873 E10.63676
G1 X-2.408 Y11.765 E10.66482
G1 X-3.175 Y11.553 E10.70453
G1 X-3.717 Y11.362 E10.7332
G1 X-4.463 Y11.058 E10.77339
G1 X-5.044 Y10.794 E10.80522
G1 X-5.602 Y10.507 E10.83653
G1 X-6.289 Y10.092 E10.87657
G1 X-6.834 Y9.707 E10.90986
G1 X-7.57 Y9.125 E10.95667
G1 X-8.006 Y8.742 E10.98563
G1 X-8.746 Y7.965 E11.03916
G1 X-9.297 Y7.268 E11.08349
G1 X-9.736 Y6.613 E11.12282
G1 X-10.088 Y6.027 E11.15693
G1 X-10.576 Y5.028 E11.2124
G1 X-11.016 Y4.013 E11.26759
G1 X-11.385 Y2.95 E11.32373
G1 X-11.561 Y2.292 E11.35771
G1 X-11.733 Y1.257 E11.41005
G1 X-11.786 Y0.671 E11.43941
G1 X-11.791 Y0.053 E11.47024
G1 X-11.747 Y-.673 E11.50653
G1 X-11.696 Y-1.171 E11.5315
G1 X-11.597 Y-1.85 E11.56574
G1 X-11.46 Y-2.42 E11.59499
G1 X-11.031 Y-3.727 E11.66361
G0 F7200 X-10.651 Y-3.602
G1 F1800 X-10.349 Y-4.427 E11.70745
G1 X-9.966 Y-5.368 E11.75813
G1 X-9.545 Y-6.168 E11.80323
G1 X-9.239 Y-6.688 E11.83333
G1 X-8.781 Y-7.373 E11.87444
G1 X-8.471 Y-7.777 E11.89985
G1 X-7.906 Y-8.415 E11.94237
G1 X-7.412 Y-8.905 E11.97708
G1 X-6.947 Y-9.293 E12.00729
G1 X-6.162 Y-9.879 E12.05617
G1 X-5.49 Y-10.311 E12.09602
G1 X-4.604 Y-10.769 E12.14578
G1 X-3.927 Y-11.058 E12.18251
G1 X-2.897 Y-11.42 E12.23698
G1 X-2.088 Y-11.634 E12.27872
G1 X-1.463 Y-11.754 E12.31048
G1 X-.237 Y-11.876 E12.37194
G1 X0.352 Y-11.902 E12.40136
G1 X1.79 Y-11.781 E12.47335
G1 X2.661 Y-11.627 E12.51748
G1 X3.192 Y-11.483 E12.54493
G1 X3.888 Y-11.229 E12.58189
G1 X4.361 Y-11.033 E12.60744
G1 X4.873 Y-10.787 E12.63578
G1 X5.446 Y-10.483 E12.66814
G1 X6.164 Y-10.041 E12.7102
G1 X6.622 Y-9.722 E12.73805
G1 X7.178 Y-9.263 E12.77402
G1 X7.698 Y-8.795 E12.80892
G1 X8.31 Y-8.209 E12.85119
G1 X8.719 Y-7.781 E12.88073
G1 X9.308 Y-7.058 E12.92725
G1 X9.646 Y-6.605 E12.95545
G1 X9.965 Y-6.109 E12.98487
G1 X10.39 Y-5.319 E13.02963
G1 X10.672 Y-4.67 E13.06493
G1 X10.957 Y-3.931 E13.10445
G1 X11.15 Y-3.334 E13.13575
G1 X11.304 Y-2.756 E13.16559
G1 X11.525 Y-1.617 E13.22348
G1 X11.603 Y-.899 E13.25951
G1 X11.63 Y0.06 E13.30737
G1 X11.599 Y0.916 E13.35011
G1 X11.539 Y1.526 E13.38069
G1 X11.416 Y2.29 E13.41929
G1 X11.254 Y3.022 E13.4567
G1 X10.988 Y3.886 E13.5018
G1 X10.807 Y4.374 E13.52776
G1 X10.46 Y5.147 E13.57004
G1 X10.225 Y5.606 E13.59576
G1 X9.852 Y6.239 E13.63242
G1 X9.543 Y6.717 E13.66082
G1 X9.2 Y7.178 E13.68948
G1 X8.732 Y7.727 E13.72547
G1 X8.339 Y8.157 E13.75454
G1 X7.967 Y8.519 E13.78043
G1 X7.431 Y8.991 E13.81606
G1 X7.03 Y9.319 E13.84191
G1 X6.607 Y9.629 E13.86807
G1 X6.031 Y10.003 E13.90234
G1 X5.583 Y10.261 E13.92813
G1 X5.085 Y10.525 E13.95625
G1 X4.484 Y10.801 E13.98925
G1 X3.872 Y11.035 E14.02193
G1 X3.325 Y11.209 E14.05057
G1 X2.631 Y11.382 E14.08625
G1 X1.455 Y11.571 E14.14568
G1 X0.501 Y11.649 E14.19343
G1 X-.343 Y11.646 E14.23554
G1 X-.867 Y11.613 E14.26173
G1 X-1.793 Y11.478 E14.30842
G1 X-2.329 Y11.373 E14.33567
G1 X-3.061 Y11.169 E14.37358
G1 X-3.566 Y10.991 E14.4003
G1 X-4.312 Y10.687 E14.44048
G1 X-4.861 Y10.439 E14.47054
G1 X-5.419 Y10.152 E14.50184
G1 X-6.077 Y9.753 E14.54024
G1 X-6.599 Y9.383 E14.57216
G1 X-7.319 Y8.814 E14.61794
G1 X-7.739 Y8.444 E14.64587
G1 X-8.452 Y7.694 E14.69749
G1 X-8.979 Y7.026 E14.73994
G1 X-9.401 Y6.395 E14.77782
G1 X-9.744 Y5.823 E14.81109
G1 X-10.215 Y4.857 E14.86471
G1 X-10.649 Y3.855 E14.91919
G1 X-11.006 Y2.823 E14.97367
G1 X-11.173 Y2.195 E15.00609
G1 X-11.338 Y1.197 E15.05655
G1 X-11.387 Y0.643 E15.0843
G1 X-11.391 Y0.058 E15.11349
G1 X-11.347 Y-.645 E15.14863
G1 X-11.27 Y-1.343 E15.18366
G1 X-11.08 Y-2.295 E15.23209
G1 X-10.651 Y-3.602 E15.30072
G1 F900 E8.80072
;MESH:COVID_evilminion_top.stl
G0 F7200 X-6.456 Y-5.895
G0 X-2.744 Y-7.445
;TYPE:WALL-INNER
G1 F900 E15.30072
G1 F1800 X-2.943 Y-7.361 E15.3115
G1 X-2.749 Y-7.455 E15.31162
G1 X-2.618 Y-7.504 E15.31859
G1 X-2.616 Y-7.499 E15.31886
G1 X-2.744 Y-7.445 E15.31894
G0 F7200 X-5.185 Y-5.462
G0 X-5.913 Y-4.613
G0 X-6.522 Y-3.711
G0 X-6.972 Y-2.729
G0 X-7.304 Y-1.563
G0 X-7.444 Y-0.086
G0 X-7.331 Y1.241
G0 X-7.008 Y2.459
G0 X-6.397 Y3.759
G0 X-5.725 Y4.714
G0 X-4.405 Y5.969
G0 X-3.25 Y6.65
G0 X-1.955 Y7.352
G0 X0.092 Y7.643
G0 X1.127 Y7.557
G0 X3.47 Y7.048
G1 F1800 X3.553 Y7.003 E15.32366
G1 X3.989 Y6.764 E15.34846
G1 X4.238 Y6.627 E15.36264
G1 X4.428 Y6.498 E15.3741
G1 X4.813 Y6.236 E15.39733
G1 X4.444 Y6.521 E15.39817
G1 X4.25 Y6.644 E15.39886
G1 X4.009 Y6.798 E15.39998
G1 X3.574 Y7.039 E15.4025
G1 X3.487 Y7.081 E15.40302
G1 X3.14 Y7.252 E15.41764
G1 X2.815 Y7.383 E15.43513
G1 X2.623 Y7.461 E15.44547
G1 X2.175 Y7.595 E15.4688
G1 X2.029 Y7.639 E15.4764
G1 X1.448 Y7.744 E15.50586
G1 X1.411 Y7.749 E15.50772
G1 X0.765 Y7.839 E15.54026
G1 X0.68 Y7.843 E15.54451
G1 X0.121 Y7.87 E15.57243
G1 X0.088 Y7.869 E15.57408
G1 X-.458 Y7.845 E15.60134
G1 X-.538 Y7.834 E15.60537
G1 X-1.007 Y7.765 E15.62902
G1 X-1.296 Y7.711 E15.64369
G1 X-1.562 Y7.66 E15.6572
G1 X-1.975 Y7.538 E15.67869
G1 X-1.993 Y7.532 E15.67963
G1 X-2.145 Y7.473 E15.68777
G1 X-1.99 Y7.52 E15.68784
G1 X-1.972 Y7.526
G1 X-1.554 Y7.62 E15.68918
G1 X-1.291 Y7.68 E15.69033
G1 X-1.001 Y7.716 E15.69177
G1 X-.53 Y7.776 E15.69493
G1 X-.456 Y7.779 E15.69538
G1 X0.09 Y7.804 E15.69985
G1 X0.118 Y7.803 E15.69997
G1 X0.677 Y7.781 E15.70445
G1 X0.756 Y7.772 E15.70496
G1 X1.403 Y7.694 E15.7099
G1 X1.435 Y7.687 E15.71
G1 X2.011 Y7.561 E15.71514
G1 X2.155 Y7.529 E15.7164
G1 X2.6 Y7.389 E15.72052
G1 X2.792 Y7.328 E15.72207
G1 X3.116 Y7.195 E15.72472
G1 X3.47 Y7.048 E15.72699
G1 F900 E9.22699
G0 F7200 X6.105 Y5.001
;TYPE:WALL-OUTER
G1 F900 E15.72699
G1 F1800 X6.263 Y4.806 E15.73952
G1 X6.49 Y4.526 E15.7575
G1 X6.577 Y4.399 E15.76518
G1 X6.853 Y3.999 E15.78942
G1 X6.884 Y3.946 E15.79249
G1 X7.116 Y3.549 E15.81543
G1 X7.169 Y3.44 E15.82147
G1 X7.374 Y3.018 E15.84488
G1 X7.427 Y2.879 E15.8523
G1 X7.629 Y2.347 E15.88069
G1 X7.687 Y2.195 E15.88881
G1 X7.789 Y1.802 E15.90907
G1 X7.845 Y1.59 E15.92001
G1 X7.907 Y1.271 E15.93622
G1 X7.963 Y0.985 E15.95076
G1 X7.981 Y0.803 E15.95988
G1 X8.032 Y0.305 E15.98486
G1 X8.032 Y0.278 E15.9862
G1 X8.044 Y-.351 E16.01759
G1 X8.045 Y-.4 E16.02004
G1 X8.008 Y-.929 E16.04649
G1 X7.997 Y-1.08 E16.05405
G1 X7.927 Y-1.53 E16.07677
G1 X7.907 Y-1.655 E16.08308
G1 X7.825 Y-2.012 E16.10136
G1 X7.775 Y-2.223 E16.11218
G1 X7.66 Y-2.575 E16.13065
G1 X7.541 Y-2.938 E16.14971
G1 X7.493 Y-3.053 E16.15593
G1 X7.307 Y-3.496 E16.1799
G1 X7.27 Y-3.567 E16.18389
G1 X7.035 Y-4.017 E16.20922
G1 X7.012 Y-4.06 E16.21165
G1 X6.76 Y-4.465 E16.23545
G1 X6.716 Y-4.534 E16.23953
G1 X6.255 Y-5.157 E16.2782
G1 X6.118 Y-5.311 E16.28848
G1 X5.858 Y-5.603 E16.30799
G1 X5.721 Y-5.731 E16.31734
G1 X5.318 Y-6.107 E16.34484
G1 X4.868 Y-6.463 E16.37346
G1 X4.83 Y-6.489 E16.37576
G1 X4.402 Y-6.784 E16.4017
G1 X4.386 Y-6.793 E16.40261
G1 X3.863 Y-7.097 E16.43279
G1 X3.765 Y-7.155 E16.43847
G1 X3.454 Y-7.291 E16.45541
G1 X3.249 Y-7.381 E16.46658
G1 X2.817 Y-7.554 E16.48979
G1 X2.741 Y-7.585 E16.49389
G1 X2.097 Y-7.772 E16.52735
G1 X1.567 Y-7.881 E16.55434
G1 X0.742 Y-7.984 E16.59582
G1 X-.257 Y-7.993 E16.64566
G1 X-.84 Y-7.934 E16.6749
G1 X-1.348 Y-7.848 E16.7006
G1 X-1.89 Y-7.719 E16.7284
G1 X-1.917 Y-7.713 E16.72978
G1 X-2.243 Y-7.594 E16.74709
G1 X-2.235 Y-7.568 E16.74845
G1 X-2.136 Y-7.245 E16.7653
G1 X-2.485 Y-7.136 E16.78354
G1 X-3.155 Y-6.853 E16.81983
G1 X-3.64 Y-6.594 E16.84726
G1 X-4.287 Y-6.178 E16.88564
G1 X-5.02 Y-5.575 E16.93299
G1 X-5.504 Y-5.079 E16.96756
G1 X-6.087 Y-4.322 E17.01523
G1 X-6.478 Y-3.709 E17.05151
G1 X-6.726 Y-3.219 E17.07891
G1 X-6.865 Y-2.883 E17.09705
G1 X-6.934 Y-2.716 E17.10606
G1 X-7.115 Y-2.167 E17.1349
G1 X-7.128 Y-2.112 E17.13772
G1 X-7.265 Y-1.555 E17.16634
