;FLAVOR:Marlin
;TIME:544
;Filament used: 0.0161455m, 0m, 0.285371m, 0m, 0m, 0m
;Layer height: 0.1
;MINX:-16.124
;MINY:-8.2
;MINZ:0.3
;MAXX:113.6
;MAXY:23.6
;MAXZ:8.8
;Generated with Cura_SteamEngine master
T0
M140 S80
M105
M190 S80
M104 S235
M104 T2 S175
M105
M109 S235
M105
M109 T2 S175
M82 ;absolute extrusion mode
;(**** start of start-gcode for Edison Bio NK 1.57.70.0 BI-P2-01-999999-9990 ****)
G21; set units to mm,
G90; set positioning to absolute
;M104 S0 T0 (set extruder temperature)
G92 Z0
G1 Z20 F120
G28 X Y F1000 (home XY axes maximum)
G28 Z F120 (home Z axis minimum)
M1010 S1
G95 P2
;G1 Z20 F1500
;G1 X119 Y20 F800
;M109 S0 T0 ;wait for extruder to reach temperature
;M106 P4 S255 ;uv led1
;M106 P3 S255 ;uv led2
M1015 P0 F60.0 E-0.5
G92 E0 (Set E to 0 again)
T0 ;Switch to the first extruder
;(**** end of start-gcode ****)
G92 E0
G92 E0
G1 F900 E-6.5
;LAYER_COUNT:86
;LAYER:0
M107
M104 T2 S220
G0 F3600 X-.643 Y5.615 Z0.3
;TYPE:SKIRT
G1 F900 E0
G1 F2100 X-3.273 Y5.951 E0.13228
;UV_PER_LAYERS: 1
G1 X-5.98 Y6.376 E0.26898
;UV_PER_LAYERS: 1
G1 X-8.045 Y6.767 E0.37384
;UV_PER_LAYERS: 1
G1 X-8.83 Y6.907 E0.41362
;UV_PER_LAYERS: 1
G1 X-9.401 Y6.97 E0.44228
;UV_PER_LAYERS: 1
G1 X-9.932 Y6.991 E0.46879
;UV_PER_LAYERS: 1
G1 X-10.582 Y6.989 E0.50122
;UV_PER_LAYERS: 1
G1 X-11.173 Y6.94 E0.53081
;UV_PER_LAYERS: 1
G1 X-11.752 Y6.812 E0.56039
;UV_PER_LAYERS: 1
G1 X-12.309 Y6.607 E0.59
;UV_PER_LAYERS: 1
G1 X-12.833 Y6.33 E0.61957
;UV_PER_LAYERS: 1
G1 X-13.314 Y5.984 E0.64913
;UV_PER_LAYERS: 1
G1 X-13.745 Y5.576 E0.67874
;UV_PER_LAYERS: 1
G1 X-14.117 Y5.115 E0.7083
;UV_PER_LAYERS: 1
G1 X-14.424 Y4.607 E0.73791
;UV_PER_LAYERS: 1
G1 X-14.66 Y4.063 E0.76749
;UV_PER_LAYERS: 1
G1 X-14.82 Y3.492 E0.79708
;UV_PER_LAYERS: 1
G1 X-14.912 Y2.709 E0.83641
;UV_PER_LAYERS: 1
G1 X-14.924 Y-1.945 E1.0686
;UV_PER_LAYERS: 1
G1 X-14.915 Y-2.651 E1.10383
;UV_PER_LAYERS: 1
G1 X-14.866 Y-3.242 E1.13341
;UV_PER_LAYERS: 1
G1 X-14.739 Y-3.822 E1.16303
;UV_PER_LAYERS: 1
G1 X-14.535 Y-4.378 E1.19258
;UV_PER_LAYERS: 1
G1 X-14.258 Y-4.903 E1.2222
;UV_PER_LAYERS: 1
G1 X-13.913 Y-5.385 E1.25177
;UV_PER_LAYERS: 1
G1 X-13.507 Y-5.817 E1.28135
;UV_PER_LAYERS: 1
G1 X-13.046 Y-6.189 E1.3109
;UV_PER_LAYERS: 1
G1 X-12.539 Y-6.497 E1.3405
;UV_PER_LAYERS: 1
G1 X-11.995 Y-6.734 E1.3701
;UV_PER_LAYERS: 1
G1 X-11.424 Y-6.895 E1.3997
;UV_PER_LAYERS: 1
G1 X-10.64 Y-6.988 E1.43909
;UV_PER_LAYERS: 1
G1 X13.07 Y-7 E2.62198
;UV_PER_LAYERS: 1
G1 X13.821 Y-6.99 E2.65945
;UV_PER_LAYERS: 1
G1 X14.412 Y-6.941 E2.68904
;UV_PER_LAYERS: 1
G1 X14.991 Y-6.813 E2.71862
;UV_PER_LAYERS: 1
G1 X15.548 Y-6.609 E2.74822
;UV_PER_LAYERS: 1
G1 X16.072 Y-6.332 E2.77779
;UV_PER_LAYERS: 1
G1 X16.554 Y-5.987 E2.80736
;UV_PER_LAYERS: 1
G1 X16.985 Y-5.58 E2.83693
;UV_PER_LAYERS: 1
G1 X17.358 Y-5.118 E2.86656
;UV_PER_LAYERS: 1
G1 X17.665 Y-4.611 E2.89613
;UV_PER_LAYERS: 1
G1 X17.902 Y-4.068 E2.92569
;UV_PER_LAYERS: 1
G1 X18.063 Y-3.497 E2.95528
;UV_PER_LAYERS: 1
G1 X18.156 Y-2.694 E2.99561
;UV_PER_LAYERS: 1
G1 X18.179 Y-1.723 E3.04407
;UV_PER_LAYERS: 1
G1 X18.184 Y-.15 E3.12255
;UV_PER_LAYERS: 1
G1 X18.176 Y0.636 E3.16176
;UV_PER_LAYERS: 1
G1 X18.129 Y1.228 E3.19139
;UV_PER_LAYERS: 1
G1 X18.004 Y1.807 E3.22094
;UV_PER_LAYERS: 1
G1 X17.801 Y2.365 E3.25057
;UV_PER_LAYERS: 1
G1 X17.526 Y2.89 E3.28014
;UV_PER_LAYERS: 1
G1 X17.182 Y3.373 E3.30972
;UV_PER_LAYERS: 1
G1 X16.777 Y3.806 E3.3393
;UV_PER_LAYERS: 1
G1 X16.317 Y4.18 E3.36888
;UV_PER_LAYERS: 1
G1 X15.811 Y4.489 E3.39846
;UV_PER_LAYERS: 1
G1 X15.268 Y4.727 E3.42803
;UV_PER_LAYERS: 1
G1 X14.698 Y4.89 E3.45761
;UV_PER_LAYERS: 1
G1 X13.96 Y4.984 E3.49473
;UV_PER_LAYERS: 1
G1 X10.24 Y5 E3.68032
;UV_PER_LAYERS: 1
G1 X7.458 Y5.039 E3.81913
;UV_PER_LAYERS: 1
G1 X4.774 Y5.153 E3.95316
;UV_PER_LAYERS: 1
G1 X2.093 Y5.343 E4.08725
;UV_PER_LAYERS: 1
G1 X-.643 Y5.615 E4.22442
;UV_PER_LAYERS: 1
G0 F3600 X-.663 Y5.215
G1 F2100 X-3.349 Y5.558 E4.35951
;UV_PER_LAYERS: 1
G1 X-6.056 Y5.984 E4.49623
;UV_PER_LAYERS: 1
G1 X-8.12 Y6.374 E4.60102
;UV_PER_LAYERS: 1
G1 X-8.899 Y6.513 E4.6405
;UV_PER_LAYERS: 1
G1 X-9.419 Y6.57 E4.6666
;UV_PER_LAYERS: 1
G1 X-9.936 Y6.591 E4.69241
;UV_PER_LAYERS: 1
G1 X-10.576 Y6.59 E4.72434
;UV_PER_LAYERS: 1
G1 X-11.139 Y6.541 E4.75254
;UV_PER_LAYERS: 1
G1 X-11.69 Y6.413 E4.78076
;UV_PER_LAYERS: 1
G1 X-12.217 Y6.209 E4.80895
;UV_PER_LAYERS: 1
G1 X-12.711 Y5.933 E4.83718
;UV_PER_LAYERS: 1
G1 X-13.16 Y5.59 E4.86537
;UV_PER_LAYERS: 1
G1 X-13.556 Y5.187 E4.89356
;UV_PER_LAYERS: 1
G1 X-13.892 Y4.732 E4.92178
;UV_PER_LAYERS: 1
G1 X-14.16 Y4.234 E4.95
;UV_PER_LAYERS: 1
G1 X-14.356 Y3.704 E4.97819
;UV_PER_LAYERS: 1
G1 X-14.474 Y3.151 E5.0064
;UV_PER_LAYERS: 1
G1 X-14.522 Y2.366 E5.04563
;UV_PER_LAYERS: 1
G1 X-14.524 Y-1.945 E5.26071
;UV_PER_LAYERS: 1
G1 X-14.515 Y-2.646 E5.29569
;UV_PER_LAYERS: 1
G1 X-14.467 Y-3.209 E5.32388
;UV_PER_LAYERS: 1
G1 X-14.34 Y-3.76 E5.35209
;UV_PER_LAYERS: 1
G1 X-14.137 Y-4.288 E5.38031
;UV_PER_LAYERS: 1
G1 X-13.861 Y-4.781 E5.4085
;UV_PER_LAYERS: 1
G1 X-13.519 Y-5.231 E5.4367
;UV_PER_LAYERS: 1
G1 X-13.117 Y-5.628 E5.46488
;UV_PER_LAYERS: 1
G1 X-12.662 Y-5.965 E5.49313
;UV_PER_LAYERS: 1
G1 X-12.165 Y-6.234 E5.52133
;UV_PER_LAYERS: 1
G1 X-11.635 Y-6.43 E5.54952
;UV_PER_LAYERS: 1
G1 X-11.082 Y-6.55 E5.57775
;UV_PER_LAYERS: 1
G1 X-10.312 Y-6.597 E5.61624
;UV_PER_LAYERS: 1
G1 X13.07 Y-6.6 E6.78277
;UV_PER_LAYERS: 1
G1 X13.815 Y-6.59 E6.81994
;UV_PER_LAYERS: 1
G1 X14.378 Y-6.541 E6.84813
;UV_PER_LAYERS: 1
G1 X14.929 Y-6.414 E6.87635
;UV_PER_LAYERS: 1
G1 X15.457 Y-6.211 E6.90457
;UV_PER_LAYERS: 1
G1 X15.95 Y-5.935 E6.93275
;UV_PER_LAYERS: 1
G1 X16.4 Y-5.592 E6.96098
;UV_PER_LAYERS: 1
G1 X16.797 Y-5.19 E6.98917
;UV_PER_LAYERS: 1
G1 X17.133 Y-4.735 E7.01739
;UV_PER_LAYERS: 1
G1 X17.402 Y-4.238 E7.04558
;UV_PER_LAYERS: 1
G1 X17.598 Y-3.708 E7.07378
;UV_PER_LAYERS: 1
G1 X17.717 Y-3.155 E7.102
;UV_PER_LAYERS: 1
G1 X17.779 Y-1.714 E7.17396
;UV_PER_LAYERS: 1
G1 X17.784 Y-.149 E7.25203
;UV_PER_LAYERS: 1
G1 X17.776 Y0.632 E7.291
;UV_PER_LAYERS: 1
G1 X17.73 Y1.196 E7.31923
;UV_PER_LAYERS: 1
G1 X17.604 Y1.747 E7.34743
;UV_PER_LAYERS: 1
G1 X17.403 Y2.275 E7.37562
;UV_PER_LAYERS: 1
G1 X17.129 Y2.769 E7.4038
;UV_PER_LAYERS: 1
G1 X16.788 Y3.22 E7.43201
;UV_PER_LAYERS: 1
G1 X16.387 Y3.619 E7.46023
;UV_PER_LAYERS: 1
G1 X15.933 Y3.956 E7.48844
;UV_PER_LAYERS: 1
G1 X15.437 Y4.227 E7.51664
;UV_PER_LAYERS: 1
G1 X14.907 Y4.425 E7.54486
;UV_PER_LAYERS: 1
G1 X14.355 Y4.546 E7.57306
;UV_PER_LAYERS: 1
G1 X13.704 Y4.595 E7.60563
;UV_PER_LAYERS: 1
G1 X10.235 Y4.6 E7.7787
;UV_PER_LAYERS: 1
G1 X7.435 Y4.64 E7.9184
;UV_PER_LAYERS: 1
G1 X4.765 Y4.753 E8.05173
;UV_PER_LAYERS: 1
G1 X2.058 Y4.945 E8.18712
;UV_PER_LAYERS: 1
G1 X-.663 Y5.215 E8.32354
;UV_PER_LAYERS: 1
G0 F3600 X-.686 Y4.814
G1 F2100 X-3.425 Y5.164 E8.4613
;UV_PER_LAYERS: 1
G1 X-6.096 Y5.584 E8.59619
;UV_PER_LAYERS: 1
G1 X-8.194 Y5.981 E8.70272
;UV_PER_LAYERS: 1
G1 X-8.969 Y6.119 E8.74199
;UV_PER_LAYERS: 1
G1 X-9.819 Y6.187 E8.78454
;UV_PER_LAYERS: 1
G1 X-10.57 Y6.19 E8.822
;UV_PER_LAYERS: 1
G1 X-11.104 Y6.141 E8.84876
;UV_PER_LAYERS: 1
G1 X-11.625 Y6.014 E8.87551
;UV_PER_LAYERS: 1
G1 X-12.121 Y5.811 E8.90225
;UV_PER_LAYERS: 1
G1 X-12.582 Y5.537 E8.929
;UV_PER_LAYERS: 1
G1 X-12.997 Y5.197 E8.95577
;UV_PER_LAYERS: 1
G1 X-13.357 Y4.799 E8.98254
;UV_PER_LAYERS: 1
G1 X-13.653 Y4.352 E9.00929
;UV_PER_LAYERS: 1
G1 X-13.88 Y3.866 E9.03605
;UV_PER_LAYERS: 1
G1 X-14.032 Y3.352 E9.06279
;UV_PER_LAYERS: 1
G1 X-14.113 Y2.688 E9.09617
;UV_PER_LAYERS: 1
G1 X-14.124 Y-1.945 E9.32731
;UV_PER_LAYERS: 1
G1 X-14.115 Y-2.64 E9.36198
;UV_PER_LAYERS: 1
G1 X-14.067 Y-3.174 E9.38873
;UV_PER_LAYERS: 1
G1 X-13.941 Y-3.696 E9.41552
;UV_PER_LAYERS: 1
G1 X-13.739 Y-4.192 E9.44224
;UV_PER_LAYERS: 1
G1 X-13.465 Y-4.653 E9.469
;UV_PER_LAYERS: 1
G1 X-13.126 Y-5.069 E9.49577
;UV_PER_LAYERS: 1
G1 X-12.728 Y-5.429 E9.52255
;UV_PER_LAYERS: 1
G1 X-12.282 Y-5.726 E9.54928
;UV_PER_LAYERS: 1
G1 X-11.797 Y-5.954 E9.57602
;UV_PER_LAYERS: 1
G1 X-11.283 Y-6.107 E9.60277
;UV_PER_LAYERS: 1
G1 X-10.617 Y-6.189 E9.63625
;UV_PER_LAYERS: 1
G1 X13.07 Y-6.2 E10.818
;UV_PER_LAYERS: 1
G1 X13.809 Y-6.19 E10.85487
;UV_PER_LAYERS: 1
G1 X14.344 Y-6.142 E10.88167
;UV_PER_LAYERS: 1
G1 X14.865 Y-6.015 E10.90842
;UV_PER_LAYERS: 1
G1 X15.361 Y-5.813 E10.93514
;UV_PER_LAYERS: 1
G1 X15.822 Y-5.539 E10.9619
;UV_PER_LAYERS: 1
G1 X16.237 Y-5.199 E10.98866
;UV_PER_LAYERS: 1
G1 X16.597 Y-4.802 E11.0154
;UV_PER_LAYERS: 1
G1 X16.894 Y-4.355 E11.04217
;UV_PER_LAYERS: 1
G1 X17.122 Y-3.87 E11.06891
;UV_PER_LAYERS: 1
G1 X17.275 Y-3.356 E11.09567
;UV_PER_LAYERS: 1
G1 X17.356 Y-2.675 E11.12988
;UV_PER_LAYERS: 1
G1 X17.379 Y-1.704 E11.17834
;UV_PER_LAYERS: 1
G1 X17.384 Y-.148 E11.25597
;UV_PER_LAYERS: 1
G1 X17.376 Y0.628 E11.29469
;UV_PER_LAYERS: 1
G1 X17.33 Y1.162 E11.32143
;UV_PER_LAYERS: 1
G1 X17.205 Y1.684 E11.3482
;UV_PER_LAYERS: 1
G1 X17.004 Y2.181 E11.37495
;UV_PER_LAYERS: 1
G1 X16.732 Y2.643 E11.4017
;UV_PER_LAYERS: 1
G1 X16.394 Y3.059 E11.42844
;UV_PER_LAYERS: 1
G1 X15.998 Y3.421 E11.45521
;UV_PER_LAYERS: 1
G1 X15.552 Y3.719 E11.48197
;UV_PER_LAYERS: 1
G1 X15.068 Y3.948 E11.50868
;UV_PER_LAYERS: 1
G1 X14.554 Y4.103 E11.53547
;UV_PER_LAYERS: 1
G1 X13.926 Y4.185 E11.56706
;UV_PER_LAYERS: 1
G1 X10.229 Y4.2 E11.75151
;UV_PER_LAYERS: 1
G1 X7.448 Y4.239 E11.89027
;UV_PER_LAYERS: 1
G1 X4.72 Y4.355 E12.02649
;UV_PER_LAYERS: 1
G1 X1.991 Y4.549 E12.16298
;UV_PER_LAYERS: 1
G1 X-.686 Y4.814 E12.29719
;UV_PER_LAYERS: 1
G0 F3600 X-.743 Y4.418
G1 F2100 X-3.466 Y4.766 E12.43415
;UV_PER_LAYERS: 1
G1 X-6.166 Y5.19 E12.5705
;UV_PER_LAYERS: 1
G1 X-8.268 Y5.588 E12.67724
;UV_PER_LAYERS: 1
G1 X-9.039 Y5.725 E12.7163
;UV_PER_LAYERS: 1
G1 X-9.837 Y5.788 E12.75624
;UV_PER_LAYERS: 1
G1 X-10.564 Y5.79 E12.79251
;UV_PER_LAYERS: 1
G1 X-11.067 Y5.742 E12.81772
;UV_PER_LAYERS: 1
G1 X-11.557 Y5.615 E12.84297
;UV_PER_LAYERS: 1
G1 X-12.02 Y5.413 E12.86817
;UV_PER_LAYERS: 1
G1 X-12.446 Y5.141 E12.89339
;UV_PER_LAYERS: 1
G1 X-12.824 Y4.805 E12.91862
;UV_PER_LAYERS: 1
G1 X-13.144 Y4.413 E12.94387
;UV_PER_LAYERS: 1
G1 X-13.398 Y3.977 E12.96904
;UV_PER_LAYERS: 1
G1 X-13.58 Y3.505 E12.99428
;UV_PER_LAYERS: 1
G1 X-13.686 Y3.011 E13.01949
;UV_PER_LAYERS: 1
G1 X-13.722 Y2.345 E13.05276
;UV_PER_LAYERS: 1
G1 X-13.724 Y-1.945 E13.26679
;UV_PER_LAYERS: 1
G1 X-13.715 Y-2.635 E13.30122
;UV_PER_LAYERS: 1
G1 X-13.668 Y-3.138 E13.32642
;UV_PER_LAYERS: 1
G1 X-13.542 Y-3.628 E13.35166
;UV_PER_LAYERS: 1
G1 X-13.341 Y-4.092 E13.37689
;UV_PER_LAYERS: 1
G1 X-13.069 Y-4.518 E13.40211
;UV_PER_LAYERS: 1
G1 X-12.734 Y-4.896 E13.42731
;UV_PER_LAYERS: 1
G1 X-12.343 Y-5.217 E13.45255
;UV_PER_LAYERS: 1
G1 X-11.906 Y-5.472 E13.47779
;UV_PER_LAYERS: 1
G1 X-11.435 Y-5.655 E13.503
;UV_PER_LAYERS: 1
G1 X-10.941 Y-5.762 E13.52821
;UV_PER_LAYERS: 1
G1 X-10.289 Y-5.798 E13.56079
;UV_PER_LAYERS: 1
G1 X13.07 Y-5.8 E14.72618
;UV_PER_LAYERS: 1
G1 X13.804 Y-5.79 E14.7628
;UV_PER_LAYERS: 1
G1 X14.307 Y-5.742 E14.78801
;UV_PER_LAYERS: 1
G1 X14.797 Y-5.616 E14.81325
;UV_PER_LAYERS: 1
G1 X15.26 Y-5.415 E14.83843
;UV_PER_LAYERS: 1
G1 X15.686 Y-5.143 E14.86365
;UV_PER_LAYERS: 1
G1 X16.064 Y-4.807 E14.88888
;UV_PER_LAYERS: 1
G1 X16.385 Y-4.416 E14.91412
;UV_PER_LAYERS: 1
G1 X16.64 Y-3.979 E14.93936
;UV_PER_LAYERS: 1
G1 X16.822 Y-3.508 E14.96455
;UV_PER_LAYERS: 1
G1 X16.929 Y-3.014 E14.98977
;UV_PER_LAYERS: 1
G1 X16.979 Y-1.695 E15.05562
;UV_PER_LAYERS: 1
G1 X16.984 Y-.147 E15.13285
;UV_PER_LAYERS: 1
G1 X16.976 Y0.623 E15.17127
;UV_PER_LAYERS: 1
G1 X16.93 Y1.127 E15.19652
;UV_PER_LAYERS: 1
G1 X16.806 Y1.617 E15.22174
;UV_PER_LAYERS: 1
G1 X16.606 Y2.081 E15.24694
;UV_PER_LAYERS: 1
G1 X16.336 Y2.508 E15.27215
;UV_PER_LAYERS: 1
G1 X16.001 Y2.888 E15.29742
;UV_PER_LAYERS: 1
G1 X15.611 Y3.209 E15.32262
;UV_PER_LAYERS: 1
G1 X15.176 Y3.466 E15.34783
;UV_PER_LAYERS: 1
G1 X14.705 Y3.65 E15.37306
;UV_PER_LAYERS: 1
G1 X14.211 Y3.758 E15.39829
;UV_PER_LAYERS: 1
G1 X13.671 Y3.795 E15.42529
;UV_PER_LAYERS: 1
G1 X10.223 Y3.8 E15.59731
;UV_PER_LAYERS: 1
G1 X7.426 Y3.84 E15.73687
;UV_PER_LAYERS: 1
G1 X4.709 Y3.955 E15.87254
;UV_PER_LAYERS: 1
G1 X1.963 Y4.15 E16.00988
;UV_PER_LAYERS: 1
G1 X-.743 Y4.418 E16.14555
;UV_PER_LAYERS: 1
M104 S215
;MESH:Bed_Spacer.stl
G0 F3600 X113.6 Y23.6
G1 F900 E0.14555
G1 F600 Z1.3
G92 E0
T2
G92 E0
M105
M109 S220
M104 T0 S0
G1 F900 E-6.5
G0 F3600 X113.6 Y23.6 Z1.3
G0 X19.202 Y1.974
;TYPE:SKIRT
G1 F600 Z0.3
G1 F900 E0
G1 F2100 X18.998 Y2.611 E0.03337
;UV_PER_LAYERS: 1
G1 X18.719 Y3.219 E0.06674
;UV_PER_LAYERS: 1
G1 X18.37 Y3.79 E0.10013
;UV_PER_LAYERS: 1
G1 X17.955 Y4.315 E0.13352
;UV_PER_LAYERS: 1
G1 X17.481 Y4.787 E0.16689
;UV_PER_LAYERS: 1
G1 X16.954 Y5.199 E0.20026
;UV_PER_LAYERS: 1
G1 X16.381 Y5.545 E0.23366
;UV_PER_LAYERS: 1
G1 X15.772 Y5.82 E0.267
;UV_PER_LAYERS: 1
G1 X15.133 Y6.021 E0.30042
;UV_PER_LAYERS: 1
G1 X14.476 Y6.144 E0.33376
;UV_PER_LAYERS: 1
G1 X13.771 Y6.193 E0.36902
;UV_PER_LAYERS: 1
G1 X10.187 Y6.2 E0.54783
;UV_PER_LAYERS: 1
G1 X7.526 Y6.238 E0.6806
;UV_PER_LAYERS: 1
G1 X4.84 Y6.352 E0.81473
;UV_PER_LAYERS: 1
G1 X2.187 Y6.54 E0.94742
;UV_PER_LAYERS: 1
G1 X-.479 Y6.804 E1.08107
;UV_PER_LAYERS: 1
G1 X-3.143 Y7.145 E1.21507
;UV_PER_LAYERS: 1
G1 X-5.763 Y7.557 E1.34738
;UV_PER_LAYERS: 1
G1 X-7.822 Y7.946 E1.45193
;UV_PER_LAYERS: 1
G1 X-8.62 Y8.088 E1.49236
;UV_PER_LAYERS: 1
G1 X-9.348 Y8.168 E1.5289
;UV_PER_LAYERS: 1
G1 X-9.919 Y8.191 E1.55741
;UV_PER_LAYERS: 1
G1 X-10.601 Y8.189 E1.59144
;UV_PER_LAYERS: 1
G1 X-11.268 Y8.139 E1.62481
;UV_PER_LAYERS: 1
G1 X-11.925 Y8.009 E1.65822
;UV_PER_LAYERS: 1
G1 X-12.561 Y7.803 E1.69157
;UV_PER_LAYERS: 1
G1 X-13.168 Y7.521 E1.72497
;UV_PER_LAYERS: 1
G1 X-13.737 Y7.17 E1.75832
;UV_PER_LAYERS: 1
G1 X-14.26 Y6.752 E1.79172
;UV_PER_LAYERS: 1
G1 X-14.73 Y6.276 E1.8251
;UV_PER_LAYERS: 1
G1 X-15.139 Y5.747 E1.85846
;UV_PER_LAYERS: 1
G1 X-15.483 Y5.173 E1.89184
;UV_PER_LAYERS: 1
G1 X-15.755 Y4.562 E1.92521
;UV_PER_LAYERS: 1
G1 X-15.953 Y3.923 E1.95858
;UV_PER_LAYERS: 1
G1 X-16.073 Y3.265 E1.99195
;UV_PER_LAYERS: 1
G1 X-16.112 Y2.742 E2.01812
;UV_PER_LAYERS: 1
G1 X-16.124 Y-1.945 E2.25195
;UV_PER_LAYERS: 1
G1 X-16.114 Y-2.668 E2.28803
;UV_PER_LAYERS: 1
G1 X-16.065 Y-3.335 E2.32139
;UV_PER_LAYERS: 1
G1 X-15.937 Y-3.992 E2.35479
;UV_PER_LAYERS: 1
G1 X-15.731 Y-4.629 E2.38819
;UV_PER_LAYERS: 1
G1 X-15.45 Y-5.236 E2.42156
;UV_PER_LAYERS: 1
G1 X-15.1 Y-5.806 E2.45493
;UV_PER_LAYERS: 1
G1 X-14.683 Y-6.33 E2.48834
;UV_PER_LAYERS: 1
G1 X-14.208 Y-6.8 E2.52168
;UV_PER_LAYERS: 1
G1 X-13.679 Y-7.21 E2.55507
;UV_PER_LAYERS: 1
G1 X-13.106 Y-7.555 E2.58844
;UV_PER_LAYERS: 1
G1 X-12.495 Y-7.828 E2.62183
;UV_PER_LAYERS: 1
G1 X-11.856 Y-8.027 E2.65522
;UV_PER_LAYERS: 1
G1 X-11.198 Y-8.148 E2.68859
;UV_PER_LAYERS: 1
G1 X-10.674 Y-8.188 E2.71481
;UV_PER_LAYERS: 1
G1 X13.07 Y-8.2 E3.89941
;UV_PER_LAYERS: 1
G1 X13.839 Y-8.189 E3.93778
;UV_PER_LAYERS: 1
G1 X14.506 Y-8.14 E3.97114
;UV_PER_LAYERS: 1
G1 X15.162 Y-8.011 E4.0045
;UV_PER_LAYERS: 1
G1 X15.799 Y-7.805 E4.0379
;UV_PER_LAYERS: 1
G1 X16.406 Y-7.524 E4.07127
;UV_PER_LAYERS: 1
G1 X16.975 Y-7.173 E4.10462
;UV_PER_LAYERS: 1
G1 X17.499 Y-6.756 E4.13803
;UV_PER_LAYERS: 1
G1 X17.969 Y-6.28 E4.17141
;UV_PER_LAYERS: 1
G1 X18.379 Y-5.752 E4.20476
;UV_PER_LAYERS: 1
G1 X18.723 Y-5.178 E4.23814
;UV_PER_LAYERS: 1
G1 X18.996 Y-4.567 E4.27153
;UV_PER_LAYERS: 1
G1 X19.195 Y-3.928 E4.30492
;UV_PER_LAYERS: 1
G1 X19.316 Y-3.27 E4.3383
;UV_PER_LAYERS: 1
G1 X19.355 Y-2.723 E4.36566
;UV_PER_LAYERS: 1
G1 X19.378 Y-1.752 E4.41411
;UV_PER_LAYERS: 1
G1 X19.384 Y-.153 E4.49389
;UV_PER_LAYERS: 1
G1 X19.376 Y0.65 E4.53395
;UV_PER_LAYERS: 1
G1 X19.328 Y1.317 E4.56732
;UV_PER_LAYERS: 1
G1 X19.202 Y1.974 E4.60069
;UV_PER_LAYERS: 1
G0 F3600 X18.802 Y1.92
G1 F2100 X18.599 Y2.532 E4.63286
;UV_PER_LAYERS: 1
G1 X18.321 Y3.114 E4.66504
;UV_PER_LAYERS: 1
G1 X17.974 Y3.657 E4.69719
;UV_PER_LAYERS: 1
G1 X17.562 Y4.153 E4.72936
;UV_PER_LAYERS: 1
G1 X17.092 Y4.594 E4.76151
;UV_PER_LAYERS: 1
G1 X16.57 Y4.973 E4.79369
;UV_PER_LAYERS: 1
G1 X16.006 Y5.285 E4.82585
;UV_PER_LAYERS: 1
G1 X15.408 Y5.525 E4.858
;UV_PER_LAYERS: 1
G1 X14.784 Y5.689 E4.89019
;UV_PER_LAYERS: 1
G1 X13.993 Y5.783 E4.92993
;UV_PER_LAYERS: 1
G1 X10.181 Y5.8 E5.12011
;UV_PER_LAYERS: 1
G1 X7.503 Y5.838 E5.25373
