;FLAVOR:Marlin
;TIME:2195
;Filament used: 0.0775071m, 0m, 0.552668m, 0m, 0m, 0m
;Layer height: 0.1
;MINX:-36.627
;MINY:-15.448
;MINZ:0.3
;MAXX:113.6
;MAXY:23.6
;MAXZ:15.5
;Generated with Cura_SteamEngine master
T0
M140 S80
M105
M190 S80
M104 S235
M104 T2 S175
M105
M109 S235
M105
M109 T2 S175
M82 ;absolute extrusion mode
;(**** start of start-gcode for Edison Bio NK 1.57.70.0 BI-P2-01-999999-9990 ****)
G21; set units to mm,
G90; set positioning to absolute
;M104 S0 T0 (set extruder temperature)
G92 Z0
G1 Z20 F120
G28 X Y F1000 (home XY axes maximum)
G28 Z F120 (home Z axis minimum)
M1010 S1
G95 P2
;G1 Z20 F1500
;G1 X119 Y20 F800
;M109 S0 T0 ;wait for extruder to reach temperature
;M106 P4 S255 ;uv led1
;M106 P3 S255 ;uv led2
M1015 P0 F60.0 E-0.5
G92 E0 (Set E to 0 again)
T0 ;Switch to the first extruder
;(**** end of start-gcode ****)
G92 E0
G92 E0
G1 F900 E-6.5
;LAYER_COUNT:153
;LAYER:0
M107
M104 T2 S220
G0 F3600 X-1.562 Y14.018 Z0.3
M104 S215
;TYPE:SKIRT
G1 F900 E0
G1 F2100 X-3.394 Y13.723 E0.09258
G1 X-4.293 Y13.56 E0.13816
G1 X-7.003 Y13.15 E0.2749
G1 X-9.694 Y12.819 E0.41017
G1 X-12.39 Y12.565 E0.54527
G1 X-15.088 Y12.388 E0.68016
G1 X-17.799 Y12.287 E0.81551
G1 X-20.54 Y12.261 E0.95226
G1 X-23.229 Y12.314 E1.08644
G1 X-26.036 Y12.464 E1.22668
G1 X-26.744 Y12.496 E1.26204
G1 X-27.588 Y12.489 E1.30415
G1 X-28.21 Y12.438 E1.33529
G1 X-28.85 Y12.33 E1.36767
G1 X-29.412 Y12.184 E1.39664
G1 X-29.921 Y12.012 E1.42344
G1 X-30.688 Y11.698 E1.46479
G1 X-31.44 Y11.307 E1.50707
G1 X-32.191 Y10.812 E1.55195
G1 X-32.8 Y10.333 E1.5906
G1 X-33.521 Y9.643 E1.64039
G1 X-33.931 Y9.144 E1.67261
G1 X-34.396 Y8.469 E1.71351
G1 X-34.867 Y7.615 E1.76216
G1 X-35.196 Y6.882 E1.80225
G1 X-35.475 Y6.105 E1.84344
G1 X-35.719 Y5.089 E1.89557
G1 X-35.798 Y4.503 E1.92507
G1 X-35.828 Y3.707 E1.96481
G1 X-35.787 Y2.991 E2.00059
G1 X-35.595 Y1.956 E2.0531
G1 X-35.274 Y0.93 E2.10674
G1 X-35.054 Y0.328 E2.13871
G1 X-34.843 Y-.172 E2.16579
G1 X-34.453 Y-.915 E2.20765
G1 X-34.093 Y-1.496 E2.24175
G1 X-33.63 Y-2.108 E2.28004
G1 X-33.292 Y-2.487 E2.30538
G1 X-32.921 Y-2.852 E2.33134
G1 X-32.525 Y-3.194 E2.35744
G1 X-31.915 Y-3.659 E2.39571
G1 X-31.241 Y-4.073 E2.43517
G1 X-30.601 Y-4.389 E2.47078
G1 X-29.78 Y-4.716 E2.51487
G1 X-29.186 Y-4.902 E2.54593
G1 X-26.179 Y-5.58 E2.69971
G1 X-23.528 Y-6.254 E2.83618
G1 X-20.939 Y-6.991 E2.97048
G1 X-18.349 Y-7.807 E3.10595
G1 X-15.784 Y-8.697 E3.24141
G1 X-13.238 Y-9.66 E3.37721
G1 X-10.746 Y-10.686 E3.51166
G1 X-8.254 Y-11.795 E3.64774
G1 X-5.823 Y-12.957 E3.78217
G1 X-5.306 Y-13.196 E3.81059
G1 X-4.649 Y-13.464 E3.84599
G1 X-4.099 Y-13.664 E3.87518
G1 X-3.389 Y-13.89 E3.91236
G1 X-2.741 Y-14.057 E3.94574
G1 X-2.228 Y-14.17 E3.97195
G1 X-1.356 Y-14.326 E4.01614
G1 X-.115 Y-14.425 E4.07825
G1 X0.43 Y-14.44 E4.10545
G1 X1.469 Y-14.371 E4.1574
G1 X2.072 Y-14.299 E4.1877
G1 X3.223 Y-14.101 E4.24597
G1 X3.841 Y-13.941 E4.27782
G1 X4.524 Y-13.693 E4.31407
G1 X4.997 Y-13.499 E4.33958
G1 X6.176 Y-12.949 E4.40448
G1 X6.734 Y-12.647 E4.43614
G1 X7.239 Y-12.339 E4.46565
G1 X7.906 Y-11.876 E4.50615
G1 X8.73 Y-11.195 E4.55949
G1 X9.41 Y-10.589 E4.60493
G1 X10.391 Y-9.639 E4.67306
G1 X10.868 Y-9.115 E4.70841
G1 X11.478 Y-8.329 E4.75805
G1 X11.864 Y-7.779 E4.79157
G1 X12.146 Y-7.311 E4.81883
G1 X12.575 Y-6.503 E4.86447
G1 X12.961 Y-5.648 E4.91127
G1 X13.157 Y-5.151 E4.93793
G1 X13.436 Y-4.337 E4.98086
G1 X13.662 Y-3.543 E5.02204
G1 X13.8 Y-2.981 E5.05091
G1 X13.979 Y-1.997 E5.10081
G1 X14.065 Y-1.3 E5.13585
G1 X14.097 Y-.78 E5.16184
G1 X14.114 Y-.203 E5.19064
G1 X14.112 Y0.306 E5.21604
G1 X14.086 Y0.863 E5.24385
G1 X14.034 Y1.53 E5.27723
G1 X13.914 Y2.433 E5.32268
G1 X13.782 Y3.145 E5.35881
G1 X13.618 Y3.819 E5.39341
G1 X13.409 Y4.516 E5.42972
G1 X13.241 Y4.987 E5.45466
G1 X13.004 Y5.556 E5.48542
G1 X12.537 Y6.541 E5.5398
G1 X12.249 Y7.087 E5.5706
G1 X11.979 Y7.54 E5.59691
G1 X11.626 Y8.076 E5.62893
G1 X11.081 Y8.81 E5.67454
G1 X10.601 Y9.378 E5.71164
G1 X10.162 Y9.852 E5.74387
G1 X9.128 Y10.81 E5.8142
G1 X8.662 Y11.205 E5.84467
G1 X8.05 Y11.663 E5.88281
G1 X7.558 Y11.988 E5.91223
G1 X6.687 Y12.489 E5.96236
G1 X5.716 Y12.977 E6.01657
G1 X5.179 Y13.209 E6.04576
G1 X4.18 Y13.559 E6.09857
G1 X3.577 Y13.726 E6.12979
G1 X2.964 Y13.856 E6.16105
G1 X2.402 Y13.948 E6.18946
G1 X1.703 Y14.044 E6.22466
G1 X1.066 Y14.112 E6.25662
G1 X0.052 Y14.144 E6.30724
G1 X-.549 Y14.129 E6.33723
G1 X-1.562 Y14.018 E6.38807
G0 F3600 X-1.514 Y13.621
G1 F2100 X-3.329 Y13.328 E6.47979
G1 X-4.233 Y13.164 E6.52563
G1 X-6.931 Y12.755 E6.66177
G1 X-9.643 Y12.422 E6.79809
G1 X-12.36 Y12.166 E6.93424
G1 X-15.083 Y11.988 E7.07038
G1 X-17.78 Y11.887 E7.20503
G1 X-20.544 Y11.861 E7.34293
G1 X-23.23 Y11.914 E7.47696
G1 X-26.058 Y12.065 E7.61826
G1 X-26.761 Y12.096 E7.65336
G1 X-27.581 Y12.089 E7.69427
G1 X-28.165 Y12.04 E7.72351
G1 X-28.778 Y11.936 E7.75453
G1 X-29.283 Y11.806 E7.78055
G1 X-29.792 Y11.634 E7.80735
G1 X-30.531 Y11.33 E7.84722
G1 X-31.248 Y10.957 E7.88754
G1 X-31.962 Y10.483 E7.9303
G1 X-32.548 Y10.022 E7.9675
G1 X-33.215 Y9.385 E8.01351
G1 X-33.618 Y8.895 E8.04516
G1 X-34.062 Y8.248 E8.08431
G1 X-34.512 Y7.429 E8.13093
G1 X-34.829 Y6.723 E8.16954
G1 X-35.096 Y5.976 E8.20912
G1 X-35.328 Y5.007 E8.25883
G1 X-35.399 Y4.479 E8.28541
G1 X-35.428 Y3.721 E8.32325
G1 X-35.39 Y3.04 E8.35728
G1 X-35.213 Y2.075 E8.40623
G1 X-34.892 Y1.049 E8.45986
G1 X-34.68 Y0.468 E8.49072
G1 X-34.476 Y-0.012 E8.51674
G1 X-34.102 Y-.723 E8.55682
G1 X-33.765 Y-1.267 E8.58874
G1 X-33.332 Y-1.842 E8.62466
G1 X-32.994 Y-2.221 E8.64999
G1 X-32.264 Y-2.892 E8.69946
G1 X-31.696 Y-3.324 E8.73506
G1 X-31.038 Y-3.729 E8.77361
G1 X-30.436 Y-4.025 E8.80708
G1 X-29.634 Y-4.343 E8.85012
G1 X-29.079 Y-4.517 E8.87914
G1 X-26.09 Y-5.19 E9.03199
G1 X-23.457 Y-5.859 E9.16753
G1 X-20.824 Y-6.608 E9.3041
G1 X-18.203 Y-7.434 E9.4412
G1 X-15.648 Y-8.321 E9.57613
G1 X-13.093 Y-9.288 E9.71243
G1 X-10.567 Y-10.327 E9.84869
G1 X-8.097 Y-11.426 E9.98357
G1 X-5.65 Y-12.596 E10.11889
G1 X-5.138 Y-12.833 E10.14704
G1 X-4.501 Y-13.093 E10.18136
G1 X-3.963 Y-13.288 E10.20991
G1 X-3.289 Y-13.503 E10.24521
G1 X-2.641 Y-13.67 E10.27859
G1 X-1.286 Y-13.933 E10.34746
G1 X-0.093 Y-14.025 E10.40715
G1 X0.439 Y-14.04 E10.4337
G1 X1.432 Y-13.973 E10.48336
G1 X2.023 Y-13.902 E10.51305
G1 X3.154 Y-13.707 E10.57031
G1 X3.71 Y-13.563 E10.59897
G1 X4.381 Y-13.319 E10.63459
G1 X4.845 Y-13.129 E10.6596
G1 X6.005 Y-12.587 E10.72348
G1 X6.526 Y-12.305 E10.75304
G1 X7.031 Y-11.997 E10.78255
G1 X7.651 Y-11.568 E10.82016
G1 X8.475 Y-10.887 E10.87349
G1 X9.143 Y-10.291 E10.91816
G1 X10.113 Y-9.352 E10.98551
G1 X10.568 Y-8.851 E11.01928
G1 X11.16 Y-8.087 E11.0675
G1 X11.525 Y-7.566 E11.09923
G1 X11.793 Y-7.123 E11.12506
G1 X12.222 Y-6.315 E11.1707
G1 X12.595 Y-5.488 E11.21597
G1 X12.779 Y-5.021 E11.24101
G1 X13.058 Y-4.207 E11.28394
G1 X13.277 Y-3.437 E11.32388
G1 X13.411 Y-2.887 E11.35212
G1 X13.585 Y-1.929 E11.4007
G1 X13.666 Y-1.273 E11.43367
G1 X13.697 Y-.768 E11.45891
G1 X13.714 Y-.191 E11.48771
G1 X13.686 Y0.844 E11.53937
G1 X13.635 Y1.498 E11.5721
G1 X13.518 Y2.377 E11.61634
G1 X13.39 Y3.065 E11.65125
G1 X13.235 Y3.704 E11.68405
G1 X13.026 Y4.401 E11.72036
G1 X12.838 Y4.92 E11.7479
G1 X12.643 Y5.384 E11.77301
G1 X12.176 Y6.369 E11.82739
G1 X11.905 Y6.882 E11.85634
G1 X11.635 Y7.335 E11.88265
G1 X11.304 Y7.837 E11.91265
G1 X10.759 Y8.571 E11.95826
G1 X10.299 Y9.116 E11.99384
G1 X9.87 Y9.579 E12.02533
G1 X8.859 Y10.514 E12.09403
G1 X8.412 Y10.893 E12.12327
G1 X7.819 Y11.336 E12.1602
G1 X7.353 Y11.645 E12.18809
G1 X6.491 Y12.141 E12.23771
G1 X5.541 Y12.618 E12.29074
G1 X5.024 Y12.841 E12.31883
G1 X4.052 Y13.181 E12.37021
G1 X3.479 Y13.338 E12.39985
G1 X2.9 Y13.462 E12.42939
G1 X2.338 Y13.554 E12.4578
G1 X1.65 Y13.647 E12.49244
G1 X1.025 Y13.714 E12.5238
G1 X0.045 Y13.744 E12.57271
G1 X-.518 Y13.73 E12.60081
G1 X-1.514 Y13.621 E12.6508
G0 F3600 X-1.466 Y13.224
G1 F2100 X-3.263 Y12.934 E12.74161
G1 X-4.174 Y12.769 E12.7878
G1 X-6.893 Y12.357 E12.925
G1 X-9.59 Y12.026 E13.06056
G1 X-12.333 Y11.767 E13.19802
G1 X-15.043 Y11.59 E13.33351
G1 X-17.797 Y11.487 E13.47101
G1 X-20.548 Y11.461 E13.60826
G1 X-23.258 Y11.514 E13.74349
G1 X-26.079 Y11.665 E13.88443
G1 X-26.779 Y11.697 E13.91939
G1 X-27.574 Y11.69 E13.95905
G1 X-28.12 Y11.643 E13.98639
G1 X-28.706 Y11.543 E14.01605
G1 X-29.664 Y11.255 E14.06596
G1 X-30.374 Y10.962 E14.10428
G1 X-31.055 Y10.606 E14.14262
G1 X-31.733 Y10.155 E14.18324
G1 X-32.297 Y9.71 E14.21909
G1 X-32.909 Y9.127 E14.26125
G1 X-33.305 Y8.646 E14.29234
G1 X-33.729 Y8.028 E14.32973
G1 X-34.158 Y7.244 E14.37432
G1 X-34.462 Y6.564 E14.41148
G1 X-34.718 Y5.847 E14.44946
G1 X-34.936 Y4.924 E14.49678
G1 X-35.024 Y4.039 E14.54115
G1 X-35.015 Y3.365 E14.57478
G1 X-34.953 Y2.761 E14.60507
G1 X-34.831 Y2.195 E14.63395
G1 X-34.51 Y1.169 E14.68759
G1 X-34.305 Y0.608 E14.71739
G1 X-34.109 Y0.148 E14.74233
G1 X-33.752 Y-.53 E14.78056
G1 X-33.437 Y-1.037 E14.81034
G1 X-33.033 Y-1.576 E14.84395
G1 X-32.695 Y-1.955 E14.86928
G1 X-32.003 Y-2.589 E14.9161
G1 X-31.477 Y-2.99 E14.9491
G1 X-30.834 Y-3.384 E14.98673
G1 X-30.271 Y-3.66 E15.01801
G1 X-29.489 Y-3.97 E15.05997
G1 X-28.971 Y-4.131 E15.08704
G1 X-25.984 Y-4.804 E15.2398
G1 X-23.355 Y-5.472 E15.37512
G1 X-20.7 Y-6.228 E15.51285
G1 X-18.089 Y-7.05 E15.64941
G1 X-15.524 Y-7.94 E15.78487
G1 X-12.936 Y-8.92 E15.92293
G1 X-10.432 Y-9.95 E16.05801
G1 X-7.897 Y-11.078 E16.19644
G1 X-5.477 Y-12.235 E16.33026
G1 X-4.97 Y-12.47 E16.35814
G1 X-4.353 Y-12.721 E16.39137
G1 X-3.828 Y-12.911 E16.41923
G1 X-3.19 Y-13.116 E16.45266
G1 X-2.542 Y-13.283 E16.48605
G1 X-1.216 Y-13.539 E16.55342
G1 X-0.071 Y-13.626 E16.61071
G1 X0.449 Y-13.64 E16.63666
G1 X1.396 Y-13.575 E16.68402
G1 X1.974 Y-13.505 E16.71307
G1 X3.084 Y-13.313 E16.76927
G1 X3.578 Y-13.185 E16.79473
G1 X4.239 Y-12.945 E16.82981
G1 X4.838 Y-12.695 E16.86219
G1 X5.835 Y-12.225 E16.91718
G1 X6.317 Y-11.964 E16.94453
G1 X6.822 Y-11.656 E16.97404
G1 X7.397 Y-11.26 E17.00887
G1 X8.221 Y-10.579 E17.06221
G1 X8.875 Y-9.994 E17.10598
G1 X9.834 Y-9.065 E17.17259
G1 X10.267 Y-8.587 E17.20477
G1 X10.841 Y-7.845 E17.25157
G1 X11.187 Y-7.352 E17.28162
G1 X11.868 Y-6.128 E17.3515
G1 X12.228 Y-5.328 E17.39527
G1 X12.679 Y-4.078 E17.46157
G1 X12.891 Y-3.331 E17.50031
G1 X13.023 Y-2.793 E17.52795
G1 X13.19 Y-1.861 E17.57518
G1 X13.267 Y-1.246 E17.60611
G1 X13.315 Y-.179 E17.65939
G1 X13.287 Y0.825 E17.7095
G1 X13.237 Y1.466 E17.74158
G1 X13.122 Y2.321 E17.78462
G1 X12.998 Y2.986 E17.81837
G1 X12.852 Y3.589 E17.84932
G1 X12.643 Y4.286 E17.88562
G1 X12.467 Y4.769 E17.91127
G1 X11.814 Y6.198 E17.98965
G1 X11.562 Y6.677 E18.01666
G1 X11.292 Y7.13 E18.04297
G1 X10.983 Y7.599 E18.07099
G1 X10.438 Y8.333 E18.1166
G1 X9.998 Y8.853 E18.15058
G1 X9.577 Y9.305 E18.1814
G1 X8.59 Y10.218 E18.24848
G1 X8.163 Y10.58 E18.27641
G1 X7.588 Y11.01 E18.31223
G1 X7.147 Y11.302 E18.33861
G1 X6.295 Y11.792 E18.38765
G1 X5.366 Y12.258 E18.4395
G1 X4.869 Y12.472 E18.4665
G1 X3.923 Y12.802 E18.51648
G1 X3.38 Y12.95 E18.54456
G1 X2.835 Y13.067 E18.57237
G1 X2.273 Y13.159 E18.60078
G1 X1.597 Y13.251 E18.63482
G1 X0.984 Y13.316 E18.66557
G1 X0.038 Y13.344 E18.71279
G1 X-.486 Y13.331 E18.73894
G1 X-1.466 Y13.224 E18.78812
G1 F900 E12.28812
;MESH:COVID_evilminion_top.stl
G0 F3600 X-23.198 Y7.426
G0 X-23.876 Y6.859
G0 X-24.406 Y7.281
;TYPE:WALL-OUTER
G1 F900 E18.78812
G1 F2100 X-24.287 Y7.173 E18.79614
G1 X-23.904 Y6.826 E18.82192
G1 X-23.853 Y6.78 E18.82535
G1 X-23.518 Y6.379 E18.85142
G1 X-23.431 Y6.275 E18.85818
G1 X-23.234 Y5.961 E18.87668
G1 X-23.098 Y5.744 E18.88945
G1 X-22.976 Y5.47 E18.90442
G1 X-22.938 Y5.386 E18.90902
G1 X-22.967 Y5.473
G1 X-23.097 Y5.744 E18.90923
G1 X-23.208 Y5.976 E18.90978
G1 X-23.402 Y6.292 E18.91123
G1 X-23.477 Y6.413 E18.91215
G1 X-23.812 Y6.813 E18.91553
G1 X-23.862 Y6.872 E18.91627
G1 X-24.234 Y7.231 E18.92076
G1 X-24.364 Y7.333 E18.92235
G1 X-24.379 Y7.345
G1 X-24.624 Y7.538 E18.93791
G1 X-24.66 Y7.566 E18.94018
G1 X-25.083 Y7.817 E18.96472
G1 X-25.185 Y7.863 E18.9703
G1 X-25.529 Y8.02 E18.98917
G1 X-25.742 Y8.091 E19.00037
G1 X-25.988 Y8.174 E19.01332
G1 X-26.405 Y8.246 E19.03444
G1 X-26.54 Y8.27 E19.04128
G1 X-27.061 Y8.316 E19.06737
G1 X-27.167 Y8.313 E19.07266
G1 X-27.573 Y8.297 E19.09293
G1 X-27.903 Y8.242 E19.10962
G1 X-28.086 Y8.211 E19.11888
G1 X-28.468 Y8.081 E19.13901
G1 X-28.578 Y8.043 E19.14482
G1 X-29.04 Y7.845 E19.1699
G1 X-29.064 Y7.832 E19.17126
G1 X-29.464 Y7.61 E19.19408
G1 X-29.766 Y7.392 E19.21267
G1 X-29.931 Y7.273 E19.22281
G1 X-30.247 Y7 E19.24365
G1 X-30.334 Y6.925 E19.24938
G1 X-30.639 Y6.552 E19.27342
G1 X-30.655 Y6.528 E19.27486
G1 X-30.917 Y6.131 E19.29859
G1 X-30.952 Y6.063 E19.3024
G1 X-31.141 Y5.699 E19.32286
G1 X-31.203 Y5.553 E19.33078
G1 X-31.386 Y5.128 E19.35386
G1 X-31.487 Y4.816 E19.37022
G1 X-31.553 Y4.615 E19.38078
G1 X-31.627 Y4.169 E19.40333
G1 X-31.63 Y4.151 E19.40425
G1 X-31.641 Y3.664 E19.42855
G1 X-31.631 Y3.572 E19.43316
G1 X-31.587 Y3.171 E19.45329
G1 X-31.52 Y2.948 E19.46491
G1 X-31.416 Y2.608 E19.48265
G1 X-31.354 Y2.424 E19.49233
G1 X-31.209 Y1.999 E19.51474
G1 X-31.153 Y1.866 E19.52194
G1 X-30.976 Y1.447 E19.54463
G1 X-30.876 Y1.272 E19.55468
G1 X-30.731 Y1.019 E19.56923
G1 X-30.56 Y0.766 E19.58447
G1 X-30.469 Y0.632 E19.59255
G1 X-30.102 Y0.236 E19.61949
G1 X-29.964 Y0.125 E19.62832
G1 X-29.609 Y-.161 E19.65106
G1 X-29.474 Y-.242 E19.65892
G1 X-29.452 Y-.256 E19.66022
G1 X-29.118 Y-.46 E19.67975
G1 X-29.038 Y-.495 E19.6841
G1 X-28.679 Y-.655 E19.70371
G1 X-28.508 Y-.717 E19.71279
G1 X-28.214 Y-.825 E19.72841
G1 X-27.981 Y-.877 E19.74032
G1 X-27.71 Y-.938 E19.75418
G1 X-27.422 Y-.963 E19.7686
G1 X-27.203 Y-.982 E19.77957
G1 X-26.878 Y-.975 E19.79579
G1 X-26.591 Y-.967 E19.81011
G1 X-26.106 Y-.86 E19.83489
G1 X-25.979 Y-.832 E19.84138
G1 X-25.594 Y-.679 E19.86205
G1 X-25.475 Y-.631 E19.86845
G1 X-25.037 Y-.4 E19.89315
G1 X-24.973 Y-.366 E19.89677
G1 X-24.747 Y-.2 E19.91076
G1 X-24.986 Y-.343 E19.91116
G1 X-25.047 Y-.38 E19.91135
G1 X-25.5 Y-.57 E19.91395
G1 X-25.617 Y-.62 E19.91495
G1 X-26.007 Y-.73 E19.91903
G1 X-26.127 Y-.764 E19.9205
G1 X-26.609 Y-.828 E19.92754
G1 X-26.88 Y-.864 E19.9316
G1 X-27.2 Y-.859 E19.93618
G1 X-27.412 Y-.855 E19.93911
G1 X-27.693 Y-.818 E19.94305
G1 X-27.959 Y-.782 E19.94654
G1 X-28.187 Y-.723 E19.94943
G1 X-28.481 Y-.645 E19.95271
G1 X-28.648 Y-.579 E19.95442
G1 X-29.01 Y-.435 E19.95793
G1 X-29.085 Y-.397
G1 X-29.429 Y-.22 E19.96055
G1 X-29.315 Y0.019 E19.96995
G1 X-29.424 Y0.097 E19.97502
G1 X-29.781 Y0.351 E19.9915
G1 X-29.893 Y0.457 E19.99707
G1 X-30.286 Y0.826 E20.01623
G1 X-30.363 Y0.898 E20.01903
G1 X-30.574 Y1.15 E20.02832
G1 X-30.741 Y1.349 E20.03371
G1 X-30.845 Y1.524 E20.03761
G1 X-31.068 Y1.901 E20.04398
G1 X-31.117 Y2.033 E20.04554
G1 X-31.275 Y2.45 E20.0505
G1 X-31.316 Y2.63 E20.05244
G1 X-31.398 Y2.984 E20.05777
G1 X-31.415 Y3.185 E20.06106
G1 X-31.451 Y3.591 E20.07009
G1 X-31.449 Y3.657 E20.07128
G1 X-31.432 Y4.136 E20.08298
G1 X-31.352 Y4.578 E20.09417
G1 X-31.319 Y4.761 E20.09824
G1 X-31.211 Y5.065 E20.10542
G1 X-31.059 Y5.49 E20.11489
G1 X-30.99 Y5.616 E20.11761
G1 X-30.792 Y5.979 E20.12673
G1 X-30.763 Y6.02 E20.12754
G1 X-30.482 Y6.413 E20.13957
G1 X-30.157 Y6.755 E20.15282
G1 X-30.094 Y6.821 E20.15532
G1 X-29.775 Y7.082 E20.16763
G1 X-29.629 Y7.202 E20.17313
G1 X-29.33 Y7.372 E20.18374
G1 X-28.934 Y7.597 E20.19909
G1 X-28.476 Y7.77 E20.21609
G1 X-28.375 Y7.808 E20.21992
G1 X-28.012 Y7.892 E20.23403
G1 X-27.851 Y7.93 E20.24056
G1 X-27.545 Y7.956 E20.25304
G1 X-27.156 Y7.989 E20.26919
G1 X-27.089 Y7.984 E20.27177
G1 X-26.567 Y7.941 E20.29343
G1 X-26.46 Y7.932 E20.29762
G1 X-26.073 Y7.836 E20.31408
G1 X-25.847 Y7.779 E20.32382
G1 X-25.649 Y7.704 E20.33257
G1 X-25.316 Y7.578 E20.34693
G1 X-25.241 Y7.536 E20.35019
G1 X-24.814 Y7.297 E20.36943
G1 X-24.566 Y7.108 E20.38125
G1 X-24.406 Y7.281 E20.3898
G0 F3600 X-24.287 Y7.173
G0 X-24.258 Y7.147
G0 X-24.178 Y6.636
G1 F900 E13.8898
;MESH:COVID_minion_top_noscrew.stl
G0 F3600 X-24.177 Y6.639
G0 X-23.223 Y5.965
G0 X-22.427 Y6.347
G0 X-1.35 Y10.684
G0 X113.6 Y23.6
G1 F900 E4.3898
G1 F600 Z1.3
G92 E0
T2
G92 E0
M105
M109 S220
M104 T0 S220
G1 F900 E-6.5
G0 F3600 X113.6 Y23.6 Z1.3
